(RS-274 Compatible G-code generated for UCCNC controller and Stepcraft 2 Mill)
(Created by in EagleCAD with the stepcraft.ulp 0.1.)
(File: "Proto.brd" created on: 26/04/2019 11:12)
(Use a 1/32inch Bit)

G90 G94 G49
G21
G00 Z5
G00 X0Y0
S12000 M03
G04 P4000
G00 X14.590Y28.930
G01 Z-0.150 F30
G03 F360
X14.590Y28.930 I-0.010
G01 Z-0.300 F30
G03 F360
X14.590Y28.930 I-0.010
G01 Z-0.450 F30
G03 F360
X14.590Y28.930 I-0.010
G01 Z-0.600 F30
G03 F360
X14.590Y28.930 I-0.010
G01 Z-0.750 F30
G03 F360
X14.590Y28.930 I-0.010
G01 Z-0.900 F30
G03 F360
X14.590Y28.930 I-0.010
G01 Z-1.050 F30
G03 F360
X14.590Y28.930 I-0.010
G01 Z-1.200 F30
G03 F360
X14.590Y28.930 I-0.010
G01 Z-1.350 F30
G03 F360
X14.590Y28.930 I-0.010
G01 Z-1.500 F30
G03 F360
X14.590Y28.930 I-0.010
G01 Z-1.650 F30
G03 F360
X14.590Y28.930 I-0.010
G01 Z-1.800 F30
G03 F360
X14.590Y28.930 I-0.010
G01 Z-1.850 F30
G03 F360
X14.590Y28.930 I-0.010
G00 Z5.000
G00 X14.590Y44.170
G01 Z-0.150 F30
G03 F360
X14.590Y44.170 I-0.010
G01 Z-0.300 F30
G03 F360
X14.590Y44.170 I-0.010
G01 Z-0.450 F30
G03 F360
X14.590Y44.170 I-0.010
G01 Z-0.600 F30
G03 F360
X14.590Y44.170 I-0.010
G01 Z-0.750 F30
G03 F360
X14.590Y44.170 I-0.010
G01 Z-0.900 F30
G03 F360
X14.590Y44.170 I-0.010
G01 Z-1.050 F30
G03 F360
X14.590Y44.170 I-0.010
G01 Z-1.200 F30
G03 F360
X14.590Y44.170 I-0.010
G01 Z-1.350 F30
G03 F360
X14.590Y44.170 I-0.010
G01 Z-1.500 F30
G03 F360
X14.590Y44.170 I-0.010
G01 Z-1.650 F30
G03 F360
X14.590Y44.170 I-0.010
G01 Z-1.800 F30
G03 F360
X14.590Y44.170 I-0.010
G01 Z-1.850 F30
G03 F360
X14.590Y44.170 I-0.010
G00 Z5.000
G00 X22.550Y44.180
G01 Z-0.150 F30
G03 F360
X22.550Y44.180 I-0.060
G01 Z-0.300 F30
G03 F360
X22.550Y44.180 I-0.060
G01 Z-0.450 F30
G03 F360
X22.550Y44.180 I-0.060
G01 Z-0.600 F30
G03 F360
X22.550Y44.180 I-0.060
G01 Z-0.750 F30
G03 F360
X22.550Y44.180 I-0.060
G01 Z-0.900 F30
G03 F360
X22.550Y44.180 I-0.060
G01 Z-1.050 F30
G03 F360
X22.550Y44.180 I-0.060
G01 Z-1.200 F30
G03 F360
X22.550Y44.180 I-0.060
G01 Z-1.350 F30
G03 F360
X22.550Y44.180 I-0.060
G01 Z-1.500 F30
G03 F360
X22.550Y44.180 I-0.060
G01 Z-1.650 F30
G03 F360
X22.550Y44.180 I-0.060
G01 Z-1.800 F30
G03 F360
X22.550Y44.180 I-0.060
G01 Z-1.850 F30
G03 F360
X22.550Y44.180 I-0.060
G00 Z5.000
G00 X47.950Y44.180
G01 Z-0.150 F30
G03 F360
X47.950Y44.180 I-0.060
G01 Z-0.300 F30
G03 F360
X47.950Y44.180 I-0.060
G01 Z-0.450 F30
G03 F360
X47.950Y44.180 I-0.060
G01 Z-0.600 F30
G03 F360
X47.950Y44.180 I-0.060
G01 Z-0.750 F30
G03 F360
X47.950Y44.180 I-0.060
G01 Z-0.900 F30
G03 F360
X47.950Y44.180 I-0.060
G01 Z-1.050 F30
G03 F360
X47.950Y44.180 I-0.060
G01 Z-1.200 F30
G03 F360
X47.950Y44.180 I-0.060
G01 Z-1.350 F30
G03 F360
X47.950Y44.180 I-0.060
G01 Z-1.500 F30
G03 F360
X47.950Y44.180 I-0.060
G01 Z-1.650 F30
G03 F360
X47.950Y44.180 I-0.060
G01 Z-1.800 F30
G03 F360
X47.950Y44.180 I-0.060
G01 Z-1.850 F30
G03 F360
X47.950Y44.180 I-0.060
G00 Z5.000
G00 X8.760Y48.910
G01 Z-0.150 F30
G03 F360
X8.760Y48.910 I-0.010
G01 Z-0.300 F30
G03 F360
X8.760Y48.910 I-0.010
G01 Z-0.450 F30
G03 F360
X8.760Y48.910 I-0.010
G01 Z-0.600 F30
G03 F360
X8.760Y48.910 I-0.010
G01 Z-0.750 F30
G03 F360
X8.760Y48.910 I-0.010
G01 Z-0.900 F30
G03 F360
X8.760Y48.910 I-0.010
G01 Z-1.050 F30
G03 F360
X8.760Y48.910 I-0.010
G01 Z-1.200 F30
G03 F360
X8.760Y48.910 I-0.010
G01 Z-1.350 F30
G03 F360
X8.760Y48.910 I-0.010
G01 Z-1.500 F30
G03 F360
X8.760Y48.910 I-0.010
G01 Z-1.650 F30
G03 F360
X8.760Y48.910 I-0.010
G01 Z-1.800 F30
G03 F360
X8.760Y48.910 I-0.010
G01 Z-1.850 F30
G03 F360
X8.760Y48.910 I-0.010
G00 Z5.000
G00 X13.840Y48.910
G01 Z-0.150 F30
G03 F360
X13.840Y48.910 I-0.010
G01 Z-0.300 F30
G03 F360
X13.840Y48.910 I-0.010
G01 Z-0.450 F30
G03 F360
X13.840Y48.910 I-0.010
G01 Z-0.600 F30
G03 F360
X13.840Y48.910 I-0.010
G01 Z-0.750 F30
G03 F360
X13.840Y48.910 I-0.010
G01 Z-0.900 F30
G03 F360
X13.840Y48.910 I-0.010
G01 Z-1.050 F30
G03 F360
X13.840Y48.910 I-0.010
G01 Z-1.200 F30
G03 F360
X13.840Y48.910 I-0.010
G01 Z-1.350 F30
G03 F360
X13.840Y48.910 I-0.010
G01 Z-1.500 F30
G03 F360
X13.840Y48.910 I-0.010
G01 Z-1.650 F30
G03 F360
X13.840Y48.910 I-0.010
G01 Z-1.800 F30
G03 F360
X13.840Y48.910 I-0.010
G01 Z-1.850 F30
G03 F360
X13.840Y48.910 I-0.010
G00 Z5.000
G00 X42.820Y21.550
G01 Z-0.150 F30
G03 F360
X42.820Y21.550 I-0.010
G01 Z-0.300 F30
G03 F360
X42.820Y21.550 I-0.010
G01 Z-0.450 F30
G03 F360
X42.820Y21.550 I-0.010
G01 Z-0.600 F30
G03 F360
X42.820Y21.550 I-0.010
G01 Z-0.750 F30
G03 F360
X42.820Y21.550 I-0.010
G01 Z-0.900 F30
G03 F360
X42.820Y21.550 I-0.010
G01 Z-1.050 F30
G03 F360
X42.820Y21.550 I-0.010
G01 Z-1.200 F30
G03 F360
X42.820Y21.550 I-0.010
G01 Z-1.350 F30
G03 F360
X42.820Y21.550 I-0.010
G01 Z-1.500 F30
G03 F360
X42.820Y21.550 I-0.010
G01 Z-1.650 F30
G03 F360
X42.820Y21.550 I-0.010
G01 Z-1.800 F30
G03 F360
X42.820Y21.550 I-0.010
G01 Z-1.850 F30
G03 F360
X42.820Y21.550 I-0.010
G00 Z5.000
G00 X37.740Y21.550
G01 Z-0.150 F30
G03 F360
X37.740Y21.550 I-0.010
G01 Z-0.300 F30
G03 F360
X37.740Y21.550 I-0.010
G01 Z-0.450 F30
G03 F360
X37.740Y21.550 I-0.010
G01 Z-0.600 F30
G03 F360
X37.740Y21.550 I-0.010
G01 Z-0.750 F30
G03 F360
X37.740Y21.550 I-0.010
G01 Z-0.900 F30
G03 F360
X37.740Y21.550 I-0.010
G01 Z-1.050 F30
G03 F360
X37.740Y21.550 I-0.010
G01 Z-1.200 F30
G03 F360
X37.740Y21.550 I-0.010
G01 Z-1.350 F30
G03 F360
X37.740Y21.550 I-0.010
G01 Z-1.500 F30
G03 F360
X37.740Y21.550 I-0.010
G01 Z-1.650 F30
G03 F360
X37.740Y21.550 I-0.010
G01 Z-1.800 F30
G03 F360
X37.740Y21.550 I-0.010
G01 Z-1.850 F30
G03 F360
X37.740Y21.550 I-0.010
G00 Z5.000
G00 X52.980Y21.550
G01 Z-0.150 F30
G03 F360
X52.980Y21.550 I-0.010
G01 Z-0.300 F30
G03 F360
X52.980Y21.550 I-0.010
G01 Z-0.450 F30
G03 F360
X52.980Y21.550 I-0.010
G01 Z-0.600 F30
G03 F360
X52.980Y21.550 I-0.010
G01 Z-0.750 F30
G03 F360
X52.980Y21.550 I-0.010
G01 Z-0.900 F30
G03 F360
X52.980Y21.550 I-0.010
G01 Z-1.050 F30
G03 F360
X52.980Y21.550 I-0.010
G01 Z-1.200 F30
G03 F360
X52.980Y21.550 I-0.010
G01 Z-1.350 F30
G03 F360
X52.980Y21.550 I-0.010
G01 Z-1.500 F30
G03 F360
X52.980Y21.550 I-0.010
G01 Z-1.650 F30
G03 F360
X52.980Y21.550 I-0.010
G01 Z-1.800 F30
G03 F360
X52.980Y21.550 I-0.010
G01 Z-1.850 F30
G03 F360
X52.980Y21.550 I-0.010
G00 Z5.000
G00 X68.220Y21.550
G01 Z-0.150 F30
G03 F360
X68.220Y21.550 I-0.010
G01 Z-0.300 F30
G03 F360
X68.220Y21.550 I-0.010
G01 Z-0.450 F30
G03 F360
X68.220Y21.550 I-0.010
G01 Z-0.600 F30
G03 F360
X68.220Y21.550 I-0.010
G01 Z-0.750 F30
G03 F360
X68.220Y21.550 I-0.010
G01 Z-0.900 F30
G03 F360
X68.220Y21.550 I-0.010
G01 Z-1.050 F30
G03 F360
X68.220Y21.550 I-0.010
G01 Z-1.200 F30
G03 F360
X68.220Y21.550 I-0.010
G01 Z-1.350 F30
G03 F360
X68.220Y21.550 I-0.010
G01 Z-1.500 F30
G03 F360
X68.220Y21.550 I-0.010
G01 Z-1.650 F30
G03 F360
X68.220Y21.550 I-0.010
G01 Z-1.800 F30
G03 F360
X68.220Y21.550 I-0.010
G01 Z-1.850 F30
G03 F360
X68.220Y21.550 I-0.010
G00 Z5.000
G00 X27.630Y44.180
G01 Z-0.150 F30
G03 F360
X27.630Y44.180 I-0.060
G01 Z-0.300 F30
G03 F360
X27.630Y44.180 I-0.060
G01 Z-0.450 F30
G03 F360
X27.630Y44.180 I-0.060
G01 Z-0.600 F30
G03 F360
X27.630Y44.180 I-0.060
G01 Z-0.750 F30
G03 F360
X27.630Y44.180 I-0.060
G01 Z-0.900 F30
G03 F360
X27.630Y44.180 I-0.060
G01 Z-1.050 F30
G03 F360
X27.630Y44.180 I-0.060
G01 Z-1.200 F30
G03 F360
X27.630Y44.180 I-0.060
G01 Z-1.350 F30
G03 F360
X27.630Y44.180 I-0.060
G01 Z-1.500 F30
G03 F360
X27.630Y44.180 I-0.060
G01 Z-1.650 F30
G03 F360
X27.630Y44.180 I-0.060
G01 Z-1.800 F30
G03 F360
X27.630Y44.180 I-0.060
G01 Z-1.850 F30
G03 F360
X27.630Y44.180 I-0.060
G00 Z5.000
G00 X30.170Y44.180
G01 Z-0.150 F30
G03 F360
X30.170Y44.180 I-0.060
G01 Z-0.300 F30
G03 F360
X30.170Y44.180 I-0.060
G01 Z-0.450 F30
G03 F360
X30.170Y44.180 I-0.060
G01 Z-0.600 F30
G03 F360
X30.170Y44.180 I-0.060
G01 Z-0.750 F30
G03 F360
X30.170Y44.180 I-0.060
G01 Z-0.900 F30
G03 F360
X30.170Y44.180 I-0.060
G01 Z-1.050 F30
G03 F360
X30.170Y44.180 I-0.060
G01 Z-1.200 F30
G03 F360
X30.170Y44.180 I-0.060
G01 Z-1.350 F30
G03 F360
X30.170Y44.180 I-0.060
G01 Z-1.500 F30
G03 F360
X30.170Y44.180 I-0.060
G01 Z-1.650 F30
G03 F360
X30.170Y44.180 I-0.060
G01 Z-1.800 F30
G03 F360
X30.170Y44.180 I-0.060
G01 Z-1.850 F30
G03 F360
X30.170Y44.180 I-0.060
G00 Z5.000
G00 X32.710Y44.180
G01 Z-0.150 F30
G03 F360
X32.710Y44.180 I-0.060
G01 Z-0.300 F30
G03 F360
X32.710Y44.180 I-0.060
G01 Z-0.450 F30
G03 F360
X32.710Y44.180 I-0.060
G01 Z-0.600 F30
G03 F360
X32.710Y44.180 I-0.060
G01 Z-0.750 F30
G03 F360
X32.710Y44.180 I-0.060
G01 Z-0.900 F30
G03 F360
X32.710Y44.180 I-0.060
G01 Z-1.050 F30
G03 F360
X32.710Y44.180 I-0.060
G01 Z-1.200 F30
G03 F360
X32.710Y44.180 I-0.060
G01 Z-1.350 F30
G03 F360
X32.710Y44.180 I-0.060
G01 Z-1.500 F30
G03 F360
X32.710Y44.180 I-0.060
G01 Z-1.650 F30
G03 F360
X32.710Y44.180 I-0.060
G01 Z-1.800 F30
G03 F360
X32.710Y44.180 I-0.060
G01 Z-1.850 F30
G03 F360
X32.710Y44.180 I-0.060
G00 Z5.000
G00 X35.250Y44.180
G01 Z-0.150 F30
G03 F360
X35.250Y44.180 I-0.060
G01 Z-0.300 F30
G03 F360
X35.250Y44.180 I-0.060
G01 Z-0.450 F30
G03 F360
X35.250Y44.180 I-0.060
G01 Z-0.600 F30
G03 F360
X35.250Y44.180 I-0.060
G01 Z-0.750 F30
G03 F360
X35.250Y44.180 I-0.060
G01 Z-0.900 F30
G03 F360
X35.250Y44.180 I-0.060
G01 Z-1.050 F30
G03 F360
X35.250Y44.180 I-0.060
G01 Z-1.200 F30
G03 F360
X35.250Y44.180 I-0.060
G01 Z-1.350 F30
G03 F360
X35.250Y44.180 I-0.060
G01 Z-1.500 F30
G03 F360
X35.250Y44.180 I-0.060
G01 Z-1.650 F30
G03 F360
X35.250Y44.180 I-0.060
G01 Z-1.800 F30
G03 F360
X35.250Y44.180 I-0.060
G01 Z-1.850 F30
G03 F360
X35.250Y44.180 I-0.060
G00 Z5.000
G00 X37.790Y44.180
G01 Z-0.150 F30
G03 F360
X37.790Y44.180 I-0.060
G01 Z-0.300 F30
G03 F360
X37.790Y44.180 I-0.060
G01 Z-0.450 F30
G03 F360
X37.790Y44.180 I-0.060
G01 Z-0.600 F30
G03 F360
X37.790Y44.180 I-0.060
G01 Z-0.750 F30
G03 F360
X37.790Y44.180 I-0.060
G01 Z-0.900 F30
G03 F360
X37.790Y44.180 I-0.060
G01 Z-1.050 F30
G03 F360
X37.790Y44.180 I-0.060
G01 Z-1.200 F30
G03 F360
X37.790Y44.180 I-0.060
G01 Z-1.350 F30
G03 F360
X37.790Y44.180 I-0.060
G01 Z-1.500 F30
G03 F360
X37.790Y44.180 I-0.060
G01 Z-1.650 F30
G03 F360
X37.790Y44.180 I-0.060
G01 Z-1.800 F30
G03 F360
X37.790Y44.180 I-0.060
G01 Z-1.850 F30
G03 F360
X37.790Y44.180 I-0.060
G00 Z5.000
G00 X40.330Y44.180
G01 Z-0.150 F30
G03 F360
X40.330Y44.180 I-0.060
G01 Z-0.300 F30
G03 F360
X40.330Y44.180 I-0.060
G01 Z-0.450 F30
G03 F360
X40.330Y44.180 I-0.060
G01 Z-0.600 F30
G03 F360
X40.330Y44.180 I-0.060
G01 Z-0.750 F30
G03 F360
X40.330Y44.180 I-0.060
G01 Z-0.900 F30
G03 F360
X40.330Y44.180 I-0.060
G01 Z-1.050 F30
G03 F360
X40.330Y44.180 I-0.060
G01 Z-1.200 F30
G03 F360
X40.330Y44.180 I-0.060
G01 Z-1.350 F30
G03 F360
X40.330Y44.180 I-0.060
G01 Z-1.500 F30
G03 F360
X40.330Y44.180 I-0.060
G01 Z-1.650 F30
G03 F360
X40.330Y44.180 I-0.060
G01 Z-1.800 F30
G03 F360
X40.330Y44.180 I-0.060
G01 Z-1.850 F30
G03 F360
X40.330Y44.180 I-0.060
G00 Z5.000
G00 X68.040Y32.750
G01 Z-0.150 F30
G03 F360
X68.040Y32.750 I-0.060
G01 Z-0.300 F30
G03 F360
X68.040Y32.750 I-0.060
G01 Z-0.450 F30
G03 F360
X68.040Y32.750 I-0.060
G01 Z-0.600 F30
G03 F360
X68.040Y32.750 I-0.060
G01 Z-0.750 F30
G03 F360
X68.040Y32.750 I-0.060
G01 Z-0.900 F30
G03 F360
X68.040Y32.750 I-0.060
G01 Z-1.050 F30
G03 F360
X68.040Y32.750 I-0.060
G01 Z-1.200 F30
G03 F360
X68.040Y32.750 I-0.060
G01 Z-1.350 F30
G03 F360
X68.040Y32.750 I-0.060
G01 Z-1.500 F30
G03 F360
X68.040Y32.750 I-0.060
G01 Z-1.650 F30
G03 F360
X68.040Y32.750 I-0.060
G01 Z-1.800 F30
G03 F360
X68.040Y32.750 I-0.060
G01 Z-1.850 F30
G03 F360
X68.040Y32.750 I-0.060
G00 Z5.000
G00 X68.040Y37.830
G01 Z-0.150 F30
G03 F360
X68.040Y37.830 I-0.060
G01 Z-0.300 F30
G03 F360
X68.040Y37.830 I-0.060
G01 Z-0.450 F30
G03 F360
X68.040Y37.830 I-0.060
G01 Z-0.600 F30
G03 F360
X68.040Y37.830 I-0.060
G01 Z-0.750 F30
G03 F360
X68.040Y37.830 I-0.060
G01 Z-0.900 F30
G03 F360
X68.040Y37.830 I-0.060
G01 Z-1.050 F30
G03 F360
X68.040Y37.830 I-0.060
G01 Z-1.200 F30
G03 F360
X68.040Y37.830 I-0.060
G01 Z-1.350 F30
G03 F360
X68.040Y37.830 I-0.060
G01 Z-1.500 F30
G03 F360
X68.040Y37.830 I-0.060
G01 Z-1.650 F30
G03 F360
X68.040Y37.830 I-0.060
G01 Z-1.800 F30
G03 F360
X68.040Y37.830 I-0.060
G01 Z-1.850 F30
G03 F360
X68.040Y37.830 I-0.060
G00 Z5.000
G00 X68.040Y40.370
G01 Z-0.150 F30
G03 F360
X68.040Y40.370 I-0.060
G01 Z-0.300 F30
G03 F360
X68.040Y40.370 I-0.060
G01 Z-0.450 F30
G03 F360
X68.040Y40.370 I-0.060
G01 Z-0.600 F30
G03 F360
X68.040Y40.370 I-0.060
G01 Z-0.750 F30
G03 F360
X68.040Y40.370 I-0.060
G01 Z-0.900 F30
G03 F360
X68.040Y40.370 I-0.060
G01 Z-1.050 F30
G03 F360
X68.040Y40.370 I-0.060
G01 Z-1.200 F30
G03 F360
X68.040Y40.370 I-0.060
G01 Z-1.350 F30
G03 F360
X68.040Y40.370 I-0.060
G01 Z-1.500 F30
G03 F360
X68.040Y40.370 I-0.060
G01 Z-1.650 F30
G03 F360
X68.040Y40.370 I-0.060
G01 Z-1.800 F30
G03 F360
X68.040Y40.370 I-0.060
G01 Z-1.850 F30
G03 F360
X68.040Y40.370 I-0.060
G00 Z5.000
G00 X68.040Y35.290
G01 Z-0.150 F30
G03 F360
X68.040Y35.290 I-0.060
G01 Z-0.300 F30
G03 F360
X68.040Y35.290 I-0.060
G01 Z-0.450 F30
G03 F360
X68.040Y35.290 I-0.060
G01 Z-0.600 F30
G03 F360
X68.040Y35.290 I-0.060
G01 Z-0.750 F30
G03 F360
X68.040Y35.290 I-0.060
G01 Z-0.900 F30
G03 F360
X68.040Y35.290 I-0.060
G01 Z-1.050 F30
G03 F360
X68.040Y35.290 I-0.060
G01 Z-1.200 F30
G03 F360
X68.040Y35.290 I-0.060
G01 Z-1.350 F30
G03 F360
X68.040Y35.290 I-0.060
G01 Z-1.500 F30
G03 F360
X68.040Y35.290 I-0.060
G01 Z-1.650 F30
G03 F360
X68.040Y35.290 I-0.060
G01 Z-1.800 F30
G03 F360
X68.040Y35.290 I-0.060
G01 Z-1.850 F30
G03 F360
X68.040Y35.290 I-0.060
G00 Z5.000
G00 X63.760Y25.360
G01 Z-0.150 F30
G03 F360
X63.760Y25.360 I-0.060
G01 Z-0.300 F30
G03 F360
X63.760Y25.360 I-0.060
G01 Z-0.450 F30
G03 F360
X63.760Y25.360 I-0.060
G01 Z-0.600 F30
G03 F360
X63.760Y25.360 I-0.060
G01 Z-0.750 F30
G03 F360
X63.760Y25.360 I-0.060
G01 Z-0.900 F30
G03 F360
X63.760Y25.360 I-0.060
G01 Z-1.050 F30
G03 F360
X63.760Y25.360 I-0.060
G01 Z-1.200 F30
G03 F360
X63.760Y25.360 I-0.060
G01 Z-1.350 F30
G03 F360
X63.760Y25.360 I-0.060
G01 Z-1.500 F30
G03 F360
X63.760Y25.360 I-0.060
G01 Z-1.650 F30
G03 F360
X63.760Y25.360 I-0.060
G01 Z-1.800 F30
G03 F360
X63.760Y25.360 I-0.060
G01 Z-1.850 F30
G03 F360
X63.760Y25.360 I-0.060
G00 Z5.000
G00 X23.770Y21.550
G01 Z-0.150 F30
G03 F360
X23.770Y21.550 I-0.010
G01 Z-0.300 F30
G03 F360
X23.770Y21.550 I-0.010
G01 Z-0.450 F30
G03 F360
X23.770Y21.550 I-0.010
G01 Z-0.600 F30
G03 F360
X23.770Y21.550 I-0.010
G01 Z-0.750 F30
G03 F360
X23.770Y21.550 I-0.010
G01 Z-0.900 F30
G03 F360
X23.770Y21.550 I-0.010
G01 Z-1.050 F30
G03 F360
X23.770Y21.550 I-0.010
G01 Z-1.200 F30
G03 F360
X23.770Y21.550 I-0.010
G01 Z-1.350 F30
G03 F360
X23.770Y21.550 I-0.010
G01 Z-1.500 F30
G03 F360
X23.770Y21.550 I-0.010
G01 Z-1.650 F30
G03 F360
X23.770Y21.550 I-0.010
G01 Z-1.800 F30
G03 F360
X23.770Y21.550 I-0.010
G01 Z-1.850 F30
G03 F360
X23.770Y21.550 I-0.010
G00 Z5.000
G00 X28.850Y21.550
G01 Z-0.150 F30
G03 F360
X28.850Y21.550 I-0.010
G01 Z-0.300 F30
G03 F360
X28.850Y21.550 I-0.010
G01 Z-0.450 F30
G03 F360
X28.850Y21.550 I-0.010
G01 Z-0.600 F30
G03 F360
X28.850Y21.550 I-0.010
G01 Z-0.750 F30
G03 F360
X28.850Y21.550 I-0.010
G01 Z-0.900 F30
G03 F360
X28.850Y21.550 I-0.010
G01 Z-1.050 F30
G03 F360
X28.850Y21.550 I-0.010
G01 Z-1.200 F30
G03 F360
X28.850Y21.550 I-0.010
G01 Z-1.350 F30
G03 F360
X28.850Y21.550 I-0.010
G01 Z-1.500 F30
G03 F360
X28.850Y21.550 I-0.010
G01 Z-1.650 F30
G03 F360
X28.850Y21.550 I-0.010
G01 Z-1.800 F30
G03 F360
X28.850Y21.550 I-0.010
G01 Z-1.850 F30
G03 F360
X28.850Y21.550 I-0.010
G00 Z5.000
G00 X45.410Y28.940
G01 Z-0.150 F30
G03 F360
X45.410Y28.940 I-0.060
G01 Z-0.300 F30
G03 F360
X45.410Y28.940 I-0.060
G01 Z-0.450 F30
G03 F360
X45.410Y28.940 I-0.060
G01 Z-0.600 F30
G03 F360
X45.410Y28.940 I-0.060
G01 Z-0.750 F30
G03 F360
X45.410Y28.940 I-0.060
G01 Z-0.900 F30
G03 F360
X45.410Y28.940 I-0.060
G01 Z-1.050 F30
G03 F360
X45.410Y28.940 I-0.060
G01 Z-1.200 F30
G03 F360
X45.410Y28.940 I-0.060
G01 Z-1.350 F30
G03 F360
X45.410Y28.940 I-0.060
G01 Z-1.500 F30
G03 F360
X45.410Y28.940 I-0.060
G01 Z-1.650 F30
G03 F360
X45.410Y28.940 I-0.060
G01 Z-1.800 F30
G03 F360
X45.410Y28.940 I-0.060
G01 Z-1.850 F30
G03 F360
X45.410Y28.940 I-0.060
G00 Z5.000
G00 X42.870Y28.940
G01 Z-0.150 F30
G03 F360
X42.870Y28.940 I-0.060
G01 Z-0.300 F30
G03 F360
X42.870Y28.940 I-0.060
G01 Z-0.450 F30
G03 F360
X42.870Y28.940 I-0.060
G01 Z-0.600 F30
G03 F360
X42.870Y28.940 I-0.060
G01 Z-0.750 F30
G03 F360
X42.870Y28.940 I-0.060
G01 Z-0.900 F30
G03 F360
X42.870Y28.940 I-0.060
G01 Z-1.050 F30
G03 F360
X42.870Y28.940 I-0.060
G01 Z-1.200 F30
G03 F360
X42.870Y28.940 I-0.060
G01 Z-1.350 F30
G03 F360
X42.870Y28.940 I-0.060
G01 Z-1.500 F30
G03 F360
X42.870Y28.940 I-0.060
G01 Z-1.650 F30
G03 F360
X42.870Y28.940 I-0.060
G01 Z-1.800 F30
G03 F360
X42.870Y28.940 I-0.060
G01 Z-1.850 F30
G03 F360
X42.870Y28.940 I-0.060
G00 Z5.000
G00 X40.330Y28.940
G01 Z-0.150 F30
G03 F360
X40.330Y28.940 I-0.060
G01 Z-0.300 F30
G03 F360
X40.330Y28.940 I-0.060
G01 Z-0.450 F30
G03 F360
X40.330Y28.940 I-0.060
G01 Z-0.600 F30
G03 F360
X40.330Y28.940 I-0.060
G01 Z-0.750 F30
G03 F360
X40.330Y28.940 I-0.060
G01 Z-0.900 F30
G03 F360
X40.330Y28.940 I-0.060
G01 Z-1.050 F30
G03 F360
X40.330Y28.940 I-0.060
G01 Z-1.200 F30
G03 F360
X40.330Y28.940 I-0.060
G01 Z-1.350 F30
G03 F360
X40.330Y28.940 I-0.060
G01 Z-1.500 F30
G03 F360
X40.330Y28.940 I-0.060
G01 Z-1.650 F30
G03 F360
X40.330Y28.940 I-0.060
G01 Z-1.800 F30
G03 F360
X40.330Y28.940 I-0.060
G01 Z-1.850 F30
G03 F360
X40.330Y28.940 I-0.060
G00 Z5.000
G00 X37.790Y28.940
G01 Z-0.150 F30
G03 F360
X37.790Y28.940 I-0.060
G01 Z-0.300 F30
G03 F360
X37.790Y28.940 I-0.060
G01 Z-0.450 F30
G03 F360
X37.790Y28.940 I-0.060
G01 Z-0.600 F30
G03 F360
X37.790Y28.940 I-0.060
G01 Z-0.750 F30
G03 F360
X37.790Y28.940 I-0.060
G01 Z-0.900 F30
G03 F360
X37.790Y28.940 I-0.060
G01 Z-1.050 F30
G03 F360
X37.790Y28.940 I-0.060
G01 Z-1.200 F30
G03 F360
X37.790Y28.940 I-0.060
G01 Z-1.350 F30
G03 F360
X37.790Y28.940 I-0.060
G01 Z-1.500 F30
G03 F360
X37.790Y28.940 I-0.060
G01 Z-1.650 F30
G03 F360
X37.790Y28.940 I-0.060
G01 Z-1.800 F30
G03 F360
X37.790Y28.940 I-0.060
G01 Z-1.850 F30
G03 F360
X37.790Y28.940 I-0.060
G00 Z5.000
G00 X35.250Y28.940
G01 Z-0.150 F30
G03 F360
X35.250Y28.940 I-0.060
G01 Z-0.300 F30
G03 F360
X35.250Y28.940 I-0.060
G01 Z-0.450 F30
G03 F360
X35.250Y28.940 I-0.060
G01 Z-0.600 F30
G03 F360
X35.250Y28.940 I-0.060
G01 Z-0.750 F30
G03 F360
X35.250Y28.940 I-0.060
G01 Z-0.900 F30
G03 F360
X35.250Y28.940 I-0.060
G01 Z-1.050 F30
G03 F360
X35.250Y28.940 I-0.060
G01 Z-1.200 F30
G03 F360
X35.250Y28.940 I-0.060
G01 Z-1.350 F30
G03 F360
X35.250Y28.940 I-0.060
G01 Z-1.500 F30
G03 F360
X35.250Y28.940 I-0.060
G01 Z-1.650 F30
G03 F360
X35.250Y28.940 I-0.060
G01 Z-1.800 F30
G03 F360
X35.250Y28.940 I-0.060
G01 Z-1.850 F30
G03 F360
X35.250Y28.940 I-0.060
G00 Z5.000
G00 X32.710Y28.940
G01 Z-0.150 F30
G03 F360
X32.710Y28.940 I-0.060
G01 Z-0.300 F30
G03 F360
X32.710Y28.940 I-0.060
G01 Z-0.450 F30
G03 F360
X32.710Y28.940 I-0.060
G01 Z-0.600 F30
G03 F360
X32.710Y28.940 I-0.060
G01 Z-0.750 F30
G03 F360
X32.710Y28.940 I-0.060
G01 Z-0.900 F30
G03 F360
X32.710Y28.940 I-0.060
G01 Z-1.050 F30
G03 F360
X32.710Y28.940 I-0.060
G01 Z-1.200 F30
G03 F360
X32.710Y28.940 I-0.060
G01 Z-1.350 F30
G03 F360
X32.710Y28.940 I-0.060
G01 Z-1.500 F30
G03 F360
X32.710Y28.940 I-0.060
G01 Z-1.650 F30
G03 F360
X32.710Y28.940 I-0.060
G01 Z-1.800 F30
G03 F360
X32.710Y28.940 I-0.060
G01 Z-1.850 F30
G03 F360
X32.710Y28.940 I-0.060
G00 Z5.000
G00 X30.170Y28.940
G01 Z-0.150 F30
G03 F360
X30.170Y28.940 I-0.060
G01 Z-0.300 F30
G03 F360
X30.170Y28.940 I-0.060
G01 Z-0.450 F30
G03 F360
X30.170Y28.940 I-0.060
G01 Z-0.600 F30
G03 F360
X30.170Y28.940 I-0.060
G01 Z-0.750 F30
G03 F360
X30.170Y28.940 I-0.060
G01 Z-0.900 F30
G03 F360
X30.170Y28.940 I-0.060
G01 Z-1.050 F30
G03 F360
X30.170Y28.940 I-0.060
G01 Z-1.200 F30
G03 F360
X30.170Y28.940 I-0.060
G01 Z-1.350 F30
G03 F360
X30.170Y28.940 I-0.060
G01 Z-1.500 F30
G03 F360
X30.170Y28.940 I-0.060
G01 Z-1.650 F30
G03 F360
X30.170Y28.940 I-0.060
G01 Z-1.800 F30
G03 F360
X30.170Y28.940 I-0.060
G01 Z-1.850 F30
G03 F360
X30.170Y28.940 I-0.060
G00 Z5.000
G00 X27.630Y28.940
G01 Z-0.150 F30
G03 F360
X27.630Y28.940 I-0.060
G01 Z-0.300 F30
G03 F360
X27.630Y28.940 I-0.060
G01 Z-0.450 F30
G03 F360
X27.630Y28.940 I-0.060
G01 Z-0.600 F30
G03 F360
X27.630Y28.940 I-0.060
G01 Z-0.750 F30
G03 F360
X27.630Y28.940 I-0.060
G01 Z-0.900 F30
G03 F360
X27.630Y28.940 I-0.060
G01 Z-1.050 F30
G03 F360
X27.630Y28.940 I-0.060
G01 Z-1.200 F30
G03 F360
X27.630Y28.940 I-0.060
G01 Z-1.350 F30
G03 F360
X27.630Y28.940 I-0.060
G01 Z-1.500 F30
G03 F360
X27.630Y28.940 I-0.060
G01 Z-1.650 F30
G03 F360
X27.630Y28.940 I-0.060
G01 Z-1.800 F30
G03 F360
X27.630Y28.940 I-0.060
G01 Z-1.850 F30
G03 F360
X27.630Y28.940 I-0.060
G00 Z5.000
G00 X25.090Y28.940
G01 Z-0.150 F30
G03 F360
X25.090Y28.940 I-0.060
G01 Z-0.300 F30
G03 F360
X25.090Y28.940 I-0.060
G01 Z-0.450 F30
G03 F360
X25.090Y28.940 I-0.060
G01 Z-0.600 F30
G03 F360
X25.090Y28.940 I-0.060
G01 Z-0.750 F30
G03 F360
X25.090Y28.940 I-0.060
G01 Z-0.900 F30
G03 F360
X25.090Y28.940 I-0.060
G01 Z-1.050 F30
G03 F360
X25.090Y28.940 I-0.060
G01 Z-1.200 F30
G03 F360
X25.090Y28.940 I-0.060
G01 Z-1.350 F30
G03 F360
X25.090Y28.940 I-0.060
G01 Z-1.500 F30
G03 F360
X25.090Y28.940 I-0.060
G01 Z-1.650 F30
G03 F360
X25.090Y28.940 I-0.060
G01 Z-1.800 F30
G03 F360
X25.090Y28.940 I-0.060
G01 Z-1.850 F30
G03 F360
X25.090Y28.940 I-0.060
G00 Z5.000
G00 X22.550Y28.940
G01 Z-0.150 F30
G03 F360
X22.550Y28.940 I-0.060
G01 Z-0.300 F30
G03 F360
X22.550Y28.940 I-0.060
G01 Z-0.450 F30
G03 F360
X22.550Y28.940 I-0.060
G01 Z-0.600 F30
G03 F360
X22.550Y28.940 I-0.060
G01 Z-0.750 F30
G03 F360
X22.550Y28.940 I-0.060
G01 Z-0.900 F30
G03 F360
X22.550Y28.940 I-0.060
G01 Z-1.050 F30
G03 F360
X22.550Y28.940 I-0.060
G01 Z-1.200 F30
G03 F360
X22.550Y28.940 I-0.060
G01 Z-1.350 F30
G03 F360
X22.550Y28.940 I-0.060
G01 Z-1.500 F30
G03 F360
X22.550Y28.940 I-0.060
G01 Z-1.650 F30
G03 F360
X22.550Y28.940 I-0.060
G01 Z-1.800 F30
G03 F360
X22.550Y28.940 I-0.060
G01 Z-1.850 F30
G03 F360
X22.550Y28.940 I-0.060
G00 Z5.000
G00 X20.010Y28.940
G01 Z-0.150 F30
G03 F360
X20.010Y28.940 I-0.060
G01 Z-0.300 F30
G03 F360
X20.010Y28.940 I-0.060
G01 Z-0.450 F30
G03 F360
X20.010Y28.940 I-0.060
G01 Z-0.600 F30
G03 F360
X20.010Y28.940 I-0.060
G01 Z-0.750 F30
G03 F360
X20.010Y28.940 I-0.060
G01 Z-0.900 F30
G03 F360
X20.010Y28.940 I-0.060
G01 Z-1.050 F30
G03 F360
X20.010Y28.940 I-0.060
G01 Z-1.200 F30
G03 F360
X20.010Y28.940 I-0.060
G01 Z-1.350 F30
G03 F360
X20.010Y28.940 I-0.060
G01 Z-1.500 F30
G03 F360
X20.010Y28.940 I-0.060
G01 Z-1.650 F30
G03 F360
X20.010Y28.940 I-0.060
G01 Z-1.800 F30
G03 F360
X20.010Y28.940 I-0.060
G01 Z-1.850 F30
G03 F360
X20.010Y28.940 I-0.060
G00 Z5.000
G00 X20.010Y44.180
G01 Z-0.150 F30
G03 F360
X20.010Y44.180 I-0.060
G01 Z-0.300 F30
G03 F360
X20.010Y44.180 I-0.060
G01 Z-0.450 F30
G03 F360
X20.010Y44.180 I-0.060
G01 Z-0.600 F30
G03 F360
X20.010Y44.180 I-0.060
G01 Z-0.750 F30
G03 F360
X20.010Y44.180 I-0.060
G01 Z-0.900 F30
G03 F360
X20.010Y44.180 I-0.060
G01 Z-1.050 F30
G03 F360
X20.010Y44.180 I-0.060
G01 Z-1.200 F30
G03 F360
X20.010Y44.180 I-0.060
G01 Z-1.350 F30
G03 F360
X20.010Y44.180 I-0.060
G01 Z-1.500 F30
G03 F360
X20.010Y44.180 I-0.060
G01 Z-1.650 F30
G03 F360
X20.010Y44.180 I-0.060
G01 Z-1.800 F30
G03 F360
X20.010Y44.180 I-0.060
G01 Z-1.850 F30
G03 F360
X20.010Y44.180 I-0.060
G00 Z5.000
G00 X47.950Y28.940
G01 Z-0.150 F30
G03 F360
X47.950Y28.940 I-0.060
G01 Z-0.300 F30
G03 F360
X47.950Y28.940 I-0.060
G01 Z-0.450 F30
G03 F360
X47.950Y28.940 I-0.060
G01 Z-0.600 F30
G03 F360
X47.950Y28.940 I-0.060
G01 Z-0.750 F30
G03 F360
X47.950Y28.940 I-0.060
G01 Z-0.900 F30
G03 F360
X47.950Y28.940 I-0.060
G01 Z-1.050 F30
G03 F360
X47.950Y28.940 I-0.060
G01 Z-1.200 F30
G03 F360
X47.950Y28.940 I-0.060
G01 Z-1.350 F30
G03 F360
X47.950Y28.940 I-0.060
G01 Z-1.500 F30
G03 F360
X47.950Y28.940 I-0.060
G01 Z-1.650 F30
G03 F360
X47.950Y28.940 I-0.060
G01 Z-1.800 F30
G03 F360
X47.950Y28.940 I-0.060
G01 Z-1.850 F30
G03 F360
X47.950Y28.940 I-0.060
G00 Z5.000
G00 X53.030Y44.180
G01 Z-0.150 F30
G03 F360
X53.030Y44.180 I-0.060
G01 Z-0.300 F30
G03 F360
X53.030Y44.180 I-0.060
G01 Z-0.450 F30
G03 F360
X53.030Y44.180 I-0.060
G01 Z-0.600 F30
G03 F360
X53.030Y44.180 I-0.060
G01 Z-0.750 F30
G03 F360
X53.030Y44.180 I-0.060
G01 Z-0.900 F30
G03 F360
X53.030Y44.180 I-0.060
G01 Z-1.050 F30
G03 F360
X53.030Y44.180 I-0.060
G01 Z-1.200 F30
G03 F360
X53.030Y44.180 I-0.060
G01 Z-1.350 F30
G03 F360
X53.030Y44.180 I-0.060
G01 Z-1.500 F30
G03 F360
X53.030Y44.180 I-0.060
G01 Z-1.650 F30
G03 F360
X53.030Y44.180 I-0.060
G01 Z-1.800 F30
G03 F360
X53.030Y44.180 I-0.060
G01 Z-1.850 F30
G03 F360
X53.030Y44.180 I-0.060
G00 Z5.000
G00 X13.840Y17.510
G01 Z-0.150 F30
G03 F360
X13.840Y17.510 I-0.010
G01 Z-0.300 F30
G03 F360
X13.840Y17.510 I-0.010
G01 Z-0.450 F30
G03 F360
X13.840Y17.510 I-0.010
G01 Z-0.600 F30
G03 F360
X13.840Y17.510 I-0.010
G01 Z-0.750 F30
G03 F360
X13.840Y17.510 I-0.010
G01 Z-0.900 F30
G03 F360
X13.840Y17.510 I-0.010
G01 Z-1.050 F30
G03 F360
X13.840Y17.510 I-0.010
G01 Z-1.200 F30
G03 F360
X13.840Y17.510 I-0.010
G01 Z-1.350 F30
G03 F360
X13.840Y17.510 I-0.010
G01 Z-1.500 F30
G03 F360
X13.840Y17.510 I-0.010
G01 Z-1.650 F30
G03 F360
X13.840Y17.510 I-0.010
G01 Z-1.800 F30
G03 F360
X13.840Y17.510 I-0.010
G01 Z-1.850 F30
G03 F360
X13.840Y17.510 I-0.010
G00 Z5.000
G00 X11.300Y17.510
G01 Z-0.150 F30
G03 F360
X11.300Y17.510 I-0.010
G01 Z-0.300 F30
G03 F360
X11.300Y17.510 I-0.010
G01 Z-0.450 F30
G03 F360
X11.300Y17.510 I-0.010
G01 Z-0.600 F30
G03 F360
X11.300Y17.510 I-0.010
G01 Z-0.750 F30
G03 F360
X11.300Y17.510 I-0.010
G01 Z-0.900 F30
G03 F360
X11.300Y17.510 I-0.010
G01 Z-1.050 F30
G03 F360
X11.300Y17.510 I-0.010
G01 Z-1.200 F30
G03 F360
X11.300Y17.510 I-0.010
G01 Z-1.350 F30
G03 F360
X11.300Y17.510 I-0.010
G01 Z-1.500 F30
G03 F360
X11.300Y17.510 I-0.010
G01 Z-1.650 F30
G03 F360
X11.300Y17.510 I-0.010
G01 Z-1.800 F30
G03 F360
X11.300Y17.510 I-0.010
G01 Z-1.850 F30
G03 F360
X11.300Y17.510 I-0.010
G00 Z5.000
G00 X8.760Y17.510
G01 Z-0.150 F30
G03 F360
X8.760Y17.510 I-0.010
G01 Z-0.300 F30
G03 F360
X8.760Y17.510 I-0.010
G01 Z-0.450 F30
G03 F360
X8.760Y17.510 I-0.010
G01 Z-0.600 F30
G03 F360
X8.760Y17.510 I-0.010
G01 Z-0.750 F30
G03 F360
X8.760Y17.510 I-0.010
G01 Z-0.900 F30
G03 F360
X8.760Y17.510 I-0.010
G01 Z-1.050 F30
G03 F360
X8.760Y17.510 I-0.010
G01 Z-1.200 F30
G03 F360
X8.760Y17.510 I-0.010
G01 Z-1.350 F30
G03 F360
X8.760Y17.510 I-0.010
G01 Z-1.500 F30
G03 F360
X8.760Y17.510 I-0.010
G01 Z-1.650 F30
G03 F360
X8.760Y17.510 I-0.010
G01 Z-1.800 F30
G03 F360
X8.760Y17.510 I-0.010
G01 Z-1.850 F30
G03 F360
X8.760Y17.510 I-0.010
G00 Z5.000
G00 X6.220Y17.510
G01 Z-0.150 F30
G03 F360
X6.220Y17.510 I-0.010
G01 Z-0.300 F30
G03 F360
X6.220Y17.510 I-0.010
G01 Z-0.450 F30
G03 F360
X6.220Y17.510 I-0.010
G01 Z-0.600 F30
G03 F360
X6.220Y17.510 I-0.010
G01 Z-0.750 F30
G03 F360
X6.220Y17.510 I-0.010
G01 Z-0.900 F30
G03 F360
X6.220Y17.510 I-0.010
G01 Z-1.050 F30
G03 F360
X6.220Y17.510 I-0.010
G01 Z-1.200 F30
G03 F360
X6.220Y17.510 I-0.010
G01 Z-1.350 F30
G03 F360
X6.220Y17.510 I-0.010
G01 Z-1.500 F30
G03 F360
X6.220Y17.510 I-0.010
G01 Z-1.650 F30
G03 F360
X6.220Y17.510 I-0.010
G01 Z-1.800 F30
G03 F360
X6.220Y17.510 I-0.010
G01 Z-1.850 F30
G03 F360
X6.220Y17.510 I-0.010
G00 Z5.000
G00 X6.220Y25.130
G01 Z-0.150 F30
G03 F360
X6.220Y25.130 I-0.010
G01 Z-0.300 F30
G03 F360
X6.220Y25.130 I-0.010
G01 Z-0.450 F30
G03 F360
X6.220Y25.130 I-0.010
G01 Z-0.600 F30
G03 F360
X6.220Y25.130 I-0.010
G01 Z-0.750 F30
G03 F360
X6.220Y25.130 I-0.010
G01 Z-0.900 F30
G03 F360
X6.220Y25.130 I-0.010
G01 Z-1.050 F30
G03 F360
X6.220Y25.130 I-0.010
G01 Z-1.200 F30
G03 F360
X6.220Y25.130 I-0.010
G01 Z-1.350 F30
G03 F360
X6.220Y25.130 I-0.010
G01 Z-1.500 F30
G03 F360
X6.220Y25.130 I-0.010
G01 Z-1.650 F30
G03 F360
X6.220Y25.130 I-0.010
G01 Z-1.800 F30
G03 F360
X6.220Y25.130 I-0.010
G01 Z-1.850 F30
G03 F360
X6.220Y25.130 I-0.010
G00 Z5.000
G00 X8.760Y25.130
G01 Z-0.150 F30
G03 F360
X8.760Y25.130 I-0.010
G01 Z-0.300 F30
G03 F360
X8.760Y25.130 I-0.010
G01 Z-0.450 F30
G03 F360
X8.760Y25.130 I-0.010
G01 Z-0.600 F30
G03 F360
X8.760Y25.130 I-0.010
G01 Z-0.750 F30
G03 F360
X8.760Y25.130 I-0.010
G01 Z-0.900 F30
G03 F360
X8.760Y25.130 I-0.010
G01 Z-1.050 F30
G03 F360
X8.760Y25.130 I-0.010
G01 Z-1.200 F30
G03 F360
X8.760Y25.130 I-0.010
G01 Z-1.350 F30
G03 F360
X8.760Y25.130 I-0.010
G01 Z-1.500 F30
G03 F360
X8.760Y25.130 I-0.010
G01 Z-1.650 F30
G03 F360
X8.760Y25.130 I-0.010
G01 Z-1.800 F30
G03 F360
X8.760Y25.130 I-0.010
G01 Z-1.850 F30
G03 F360
X8.760Y25.130 I-0.010
G00 Z5.000
G00 X11.300Y25.130
G01 Z-0.150 F30
G03 F360
X11.300Y25.130 I-0.010
G01 Z-0.300 F30
G03 F360
X11.300Y25.130 I-0.010
G01 Z-0.450 F30
G03 F360
X11.300Y25.130 I-0.010
G01 Z-0.600 F30
G03 F360
X11.300Y25.130 I-0.010
G01 Z-0.750 F30
G03 F360
X11.300Y25.130 I-0.010
G01 Z-0.900 F30
G03 F360
X11.300Y25.130 I-0.010
G01 Z-1.050 F30
G03 F360
X11.300Y25.130 I-0.010
G01 Z-1.200 F30
G03 F360
X11.300Y25.130 I-0.010
G01 Z-1.350 F30
G03 F360
X11.300Y25.130 I-0.010
G01 Z-1.500 F30
G03 F360
X11.300Y25.130 I-0.010
G01 Z-1.650 F30
G03 F360
X11.300Y25.130 I-0.010
G01 Z-1.800 F30
G03 F360
X11.300Y25.130 I-0.010
G01 Z-1.850 F30
G03 F360
X11.300Y25.130 I-0.010
G00 Z5.000
G00 X13.840Y25.130
G01 Z-0.150 F30
G03 F360
X13.840Y25.130 I-0.010
G01 Z-0.300 F30
G03 F360
X13.840Y25.130 I-0.010
G01 Z-0.450 F30
G03 F360
X13.840Y25.130 I-0.010
G01 Z-0.600 F30
G03 F360
X13.840Y25.130 I-0.010
G01 Z-0.750 F30
G03 F360
X13.840Y25.130 I-0.010
G01 Z-0.900 F30
G03 F360
X13.840Y25.130 I-0.010
G01 Z-1.050 F30
G03 F360
X13.840Y25.130 I-0.010
G01 Z-1.200 F30
G03 F360
X13.840Y25.130 I-0.010
G01 Z-1.350 F30
G03 F360
X13.840Y25.130 I-0.010
G01 Z-1.500 F30
G03 F360
X13.840Y25.130 I-0.010
G01 Z-1.650 F30
G03 F360
X13.840Y25.130 I-0.010
G01 Z-1.800 F30
G03 F360
X13.840Y25.130 I-0.010
G01 Z-1.850 F30
G03 F360
X13.840Y25.130 I-0.010
G00 Z5.000
G00 X68.233Y10.790
G01 Z-0.150 F30
G03 F360
X68.233Y10.790 I-0.103
G01 Z-0.300 F30
G03 F360
X68.233Y10.790 I-0.103
G01 Z-0.450 F30
G03 F360
X68.233Y10.790 I-0.103
G01 Z-0.600 F30
G03 F360
X68.233Y10.790 I-0.103
G01 Z-0.750 F30
G03 F360
X68.233Y10.790 I-0.103
G01 Z-0.900 F30
G03 F360
X68.233Y10.790 I-0.103
G01 Z-1.050 F30
G03 F360
X68.233Y10.790 I-0.103
G01 Z-1.200 F30
G03 F360
X68.233Y10.790 I-0.103
G01 Z-1.350 F30
G03 F360
X68.233Y10.790 I-0.103
G01 Z-1.500 F30
G03 F360
X68.233Y10.790 I-0.103
G01 Z-1.650 F30
G03 F360
X68.233Y10.790 I-0.103
G01 Z-1.800 F30
G03 F360
X68.233Y10.790 I-0.103
G01 Z-1.850 F30
G03 F360
X68.233Y10.790 I-0.103
G00 Z5.000
G00 X70.533Y12.890
G01 Z-0.150 F30
G03 F360
X70.533Y12.890 I-0.103
G01 Z-0.300 F30
G03 F360
X70.533Y12.890 I-0.103
G01 Z-0.450 F30
G03 F360
X70.533Y12.890 I-0.103
G01 Z-0.600 F30
G03 F360
X70.533Y12.890 I-0.103
G01 Z-0.750 F30
G03 F360
X70.533Y12.890 I-0.103
G01 Z-0.900 F30
G03 F360
X70.533Y12.890 I-0.103
G01 Z-1.050 F30
G03 F360
X70.533Y12.890 I-0.103
G01 Z-1.200 F30
G03 F360
X70.533Y12.890 I-0.103
G01 Z-1.350 F30
G03 F360
X70.533Y12.890 I-0.103
G01 Z-1.500 F30
G03 F360
X70.533Y12.890 I-0.103
G01 Z-1.650 F30
G03 F360
X70.533Y12.890 I-0.103
G01 Z-1.800 F30
G03 F360
X70.533Y12.890 I-0.103
G01 Z-1.850 F30
G03 F360
X70.533Y12.890 I-0.103
G00 Z5.000
G00 X61.233Y10.590
G01 Z-0.150 F30
G03 F360
X61.233Y10.590 I-0.103
G01 Z-0.300 F30
G03 F360
X61.233Y10.590 I-0.103
G01 Z-0.450 F30
G03 F360
X61.233Y10.590 I-0.103
G01 Z-0.600 F30
G03 F360
X61.233Y10.590 I-0.103
G01 Z-0.750 F30
G03 F360
X61.233Y10.590 I-0.103
G01 Z-0.900 F30
G03 F360
X61.233Y10.590 I-0.103
G01 Z-1.050 F30
G03 F360
X61.233Y10.590 I-0.103
G01 Z-1.200 F30
G03 F360
X61.233Y10.590 I-0.103
G01 Z-1.350 F30
G03 F360
X61.233Y10.590 I-0.103
G01 Z-1.500 F30
G03 F360
X61.233Y10.590 I-0.103
G01 Z-1.650 F30
G03 F360
X61.233Y10.590 I-0.103
G01 Z-1.800 F30
G03 F360
X61.233Y10.590 I-0.103
G01 Z-1.850 F30
G03 F360
X61.233Y10.590 I-0.103
G00 Z5.000
G00 X69.233Y3.890
G01 Z-0.150 F30
G03 F360
X69.233Y3.890 I-0.103
G01 Z-0.300 F30
G03 F360
X69.233Y3.890 I-0.103
G01 Z-0.450 F30
G03 F360
X69.233Y3.890 I-0.103
G01 Z-0.600 F30
G03 F360
X69.233Y3.890 I-0.103
G01 Z-0.750 F30
G03 F360
X69.233Y3.890 I-0.103
G01 Z-0.900 F30
G03 F360
X69.233Y3.890 I-0.103
G01 Z-1.050 F30
G03 F360
X69.233Y3.890 I-0.103
G01 Z-1.200 F30
G03 F360
X69.233Y3.890 I-0.103
G01 Z-1.350 F30
G03 F360
X69.233Y3.890 I-0.103
G01 Z-1.500 F30
G03 F360
X69.233Y3.890 I-0.103
G01 Z-1.650 F30
G03 F360
X69.233Y3.890 I-0.103
G01 Z-1.800 F30
G03 F360
X69.233Y3.890 I-0.103
G01 Z-1.850 F30
G03 F360
X69.233Y3.890 I-0.103
G00 Z5.000
G00 X58.110Y44.180
G01 Z-0.150 F30
G03 F360
X58.110Y44.180 I-0.060
G01 Z-0.300 F30
G03 F360
X58.110Y44.180 I-0.060
G01 Z-0.450 F30
G03 F360
X58.110Y44.180 I-0.060
G01 Z-0.600 F30
G03 F360
X58.110Y44.180 I-0.060
G01 Z-0.750 F30
G03 F360
X58.110Y44.180 I-0.060
G01 Z-0.900 F30
G03 F360
X58.110Y44.180 I-0.060
G01 Z-1.050 F30
G03 F360
X58.110Y44.180 I-0.060
G01 Z-1.200 F30
G03 F360
X58.110Y44.180 I-0.060
G01 Z-1.350 F30
G03 F360
X58.110Y44.180 I-0.060
G01 Z-1.500 F30
G03 F360
X58.110Y44.180 I-0.060
G01 Z-1.650 F30
G03 F360
X58.110Y44.180 I-0.060
G01 Z-1.800 F30
G03 F360
X58.110Y44.180 I-0.060
G01 Z-1.850 F30
G03 F360
X58.110Y44.180 I-0.060
G00 Z5.000
G00 X60.650Y28.940
G01 Z-0.150 F30
G03 F360
X60.650Y28.940 I-0.060
G01 Z-0.300 F30
G03 F360
X60.650Y28.940 I-0.060
G01 Z-0.450 F30
G03 F360
X60.650Y28.940 I-0.060
G01 Z-0.600 F30
G03 F360
X60.650Y28.940 I-0.060
G01 Z-0.750 F30
G03 F360
X60.650Y28.940 I-0.060
G01 Z-0.900 F30
G03 F360
X60.650Y28.940 I-0.060
G01 Z-1.050 F30
G03 F360
X60.650Y28.940 I-0.060
G01 Z-1.200 F30
G03 F360
X60.650Y28.940 I-0.060
G01 Z-1.350 F30
G03 F360
X60.650Y28.940 I-0.060
G01 Z-1.500 F30
G03 F360
X60.650Y28.940 I-0.060
G01 Z-1.650 F30
G03 F360
X60.650Y28.940 I-0.060
G01 Z-1.800 F30
G03 F360
X60.650Y28.940 I-0.060
G01 Z-1.850 F30
G03 F360
X60.650Y28.940 I-0.060
G00 Z5.000
G00 X45.410Y44.180
G01 Z-0.150 F30
G03 F360
X45.410Y44.180 I-0.060
G01 Z-0.300 F30
G03 F360
X45.410Y44.180 I-0.060
G01 Z-0.450 F30
G03 F360
X45.410Y44.180 I-0.060
G01 Z-0.600 F30
G03 F360
X45.410Y44.180 I-0.060
G01 Z-0.750 F30
G03 F360
X45.410Y44.180 I-0.060
G01 Z-0.900 F30
G03 F360
X45.410Y44.180 I-0.060
G01 Z-1.050 F30
G03 F360
X45.410Y44.180 I-0.060
G01 Z-1.200 F30
G03 F360
X45.410Y44.180 I-0.060
G01 Z-1.350 F30
G03 F360
X45.410Y44.180 I-0.060
G01 Z-1.500 F30
G03 F360
X45.410Y44.180 I-0.060
G01 Z-1.650 F30
G03 F360
X45.410Y44.180 I-0.060
G01 Z-1.800 F30
G03 F360
X45.410Y44.180 I-0.060
G01 Z-1.850 F30
G03 F360
X45.410Y44.180 I-0.060
G00 Z5.000
G00 X42.870Y44.180
G01 Z-0.150 F30
G03 F360
X42.870Y44.180 I-0.060
G01 Z-0.300 F30
G03 F360
X42.870Y44.180 I-0.060
G01 Z-0.450 F30
G03 F360
X42.870Y44.180 I-0.060
G01 Z-0.600 F30
G03 F360
X42.870Y44.180 I-0.060
G01 Z-0.750 F30
G03 F360
X42.870Y44.180 I-0.060
G01 Z-0.900 F30
G03 F360
X42.870Y44.180 I-0.060
G01 Z-1.050 F30
G03 F360
X42.870Y44.180 I-0.060
G01 Z-1.200 F30
G03 F360
X42.870Y44.180 I-0.060
G01 Z-1.350 F30
G03 F360
X42.870Y44.180 I-0.060
G01 Z-1.500 F30
G03 F360
X42.870Y44.180 I-0.060
G01 Z-1.650 F30
G03 F360
X42.870Y44.180 I-0.060
G01 Z-1.800 F30
G03 F360
X42.870Y44.180 I-0.060
G01 Z-1.850 F30
G03 F360
X42.870Y44.180 I-0.060
G00 Z5.000
G00 X68.840Y25.360
G01 Z-0.150 F30
G03 F360
X68.840Y25.360 I-0.060
G01 Z-0.300 F30
G03 F360
X68.840Y25.360 I-0.060
G01 Z-0.450 F30
G03 F360
X68.840Y25.360 I-0.060
G01 Z-0.600 F30
G03 F360
X68.840Y25.360 I-0.060
G01 Z-0.750 F30
G03 F360
X68.840Y25.360 I-0.060
G01 Z-0.900 F30
G03 F360
X68.840Y25.360 I-0.060
G01 Z-1.050 F30
G03 F360
X68.840Y25.360 I-0.060
G01 Z-1.200 F30
G03 F360
X68.840Y25.360 I-0.060
G01 Z-1.350 F30
G03 F360
X68.840Y25.360 I-0.060
G01 Z-1.500 F30
G03 F360
X68.840Y25.360 I-0.060
G01 Z-1.650 F30
G03 F360
X68.840Y25.360 I-0.060
G01 Z-1.800 F30
G03 F360
X68.840Y25.360 I-0.060
G01 Z-1.850 F30
G03 F360
X68.840Y25.360 I-0.060
G00 Z5.000
G00 X70.322Y50.000
G01 Z-0.150 F30
G03 F360
X70.322Y50.000 I-0.302
G01 Z-0.300 F30
G03 F360
X70.322Y50.000 I-0.302
G01 Z-0.450 F30
G03 F360
X70.322Y50.000 I-0.302
G01 Z-0.600 F30
G03 F360
X70.322Y50.000 I-0.302
G01 Z-0.750 F30
G03 F360
X70.322Y50.000 I-0.302
G01 Z-0.900 F30
G03 F360
X70.322Y50.000 I-0.302
G01 Z-1.050 F30
G03 F360
X70.322Y50.000 I-0.302
G01 Z-1.200 F30
G03 F360
X70.322Y50.000 I-0.302
G01 Z-1.350 F30
G03 F360
X70.322Y50.000 I-0.302
G01 Z-1.500 F30
G03 F360
X70.322Y50.000 I-0.302
G01 Z-1.650 F30
G03 F360
X70.322Y50.000 I-0.302
G01 Z-1.800 F30
G03 F360
X70.322Y50.000 I-0.302
G01 Z-1.850 F30
G03 F360
X70.322Y50.000 I-0.302
G00 Z5.000
G00 X4.322Y4.500
G01 Z-0.150 F30
G03 F360
X4.322Y4.500 I-0.302
G01 Z-0.300 F30
G03 F360
X4.322Y4.500 I-0.302
G01 Z-0.450 F30
G03 F360
X4.322Y4.500 I-0.302
G01 Z-0.600 F30
G03 F360
X4.322Y4.500 I-0.302
G01 Z-0.750 F30
G03 F360
X4.322Y4.500 I-0.302
G01 Z-0.900 F30
G03 F360
X4.322Y4.500 I-0.302
G01 Z-1.050 F30
G03 F360
X4.322Y4.500 I-0.302
G01 Z-1.200 F30
G03 F360
X4.322Y4.500 I-0.302
G01 Z-1.350 F30
G03 F360
X4.322Y4.500 I-0.302
G01 Z-1.500 F30
G03 F360
X4.322Y4.500 I-0.302
G01 Z-1.650 F30
G03 F360
X4.322Y4.500 I-0.302
G01 Z-1.800 F30
G03 F360
X4.322Y4.500 I-0.302
G01 Z-1.850 F30
G03 F360
X4.322Y4.500 I-0.302
G00 Z5.000
G00 X25.090Y44.180
G01 Z-0.150 F30
G03 F360
X25.090Y44.180 I-0.060
G01 Z-0.300 F30
G03 F360
X25.090Y44.180 I-0.060
G01 Z-0.450 F30
G03 F360
X25.090Y44.180 I-0.060
G01 Z-0.600 F30
G03 F360
X25.090Y44.180 I-0.060
G01 Z-0.750 F30
G03 F360
X25.090Y44.180 I-0.060
G01 Z-0.900 F30
G03 F360
X25.090Y44.180 I-0.060
G01 Z-1.050 F30
G03 F360
X25.090Y44.180 I-0.060
G01 Z-1.200 F30
G03 F360
X25.090Y44.180 I-0.060
G01 Z-1.350 F30
G03 F360
X25.090Y44.180 I-0.060
G01 Z-1.500 F30
G03 F360
X25.090Y44.180 I-0.060
G01 Z-1.650 F30
G03 F360
X25.090Y44.180 I-0.060
G01 Z-1.800 F30
G03 F360
X25.090Y44.180 I-0.060
G01 Z-1.850 F30
G03 F360
X25.090Y44.180 I-0.060
G00 Z5.000
G00 X66.300Y25.360
G01 Z-0.150 F30
G03 F360
X66.300Y25.360 I-0.060
G01 Z-0.300 F30
G03 F360
X66.300Y25.360 I-0.060
G01 Z-0.450 F30
G03 F360
X66.300Y25.360 I-0.060
G01 Z-0.600 F30
G03 F360
X66.300Y25.360 I-0.060
G01 Z-0.750 F30
G03 F360
X66.300Y25.360 I-0.060
G01 Z-0.900 F30
G03 F360
X66.300Y25.360 I-0.060
G01 Z-1.050 F30
G03 F360
X66.300Y25.360 I-0.060
G01 Z-1.200 F30
G03 F360
X66.300Y25.360 I-0.060
G01 Z-1.350 F30
G03 F360
X66.300Y25.360 I-0.060
G01 Z-1.500 F30
G03 F360
X66.300Y25.360 I-0.060
G01 Z-1.650 F30
G03 F360
X66.300Y25.360 I-0.060
G01 Z-1.800 F30
G03 F360
X66.300Y25.360 I-0.060
G01 Z-1.850 F30
G03 F360
X66.300Y25.360 I-0.060
G00 Z5.000
G00 X50.490Y28.940
G01 Z-0.150 F30
G03 F360
X50.490Y28.940 I-0.060
G01 Z-0.300 F30
G03 F360
X50.490Y28.940 I-0.060
G01 Z-0.450 F30
G03 F360
X50.490Y28.940 I-0.060
G01 Z-0.600 F30
G03 F360
X50.490Y28.940 I-0.060
G01 Z-0.750 F30
G03 F360
X50.490Y28.940 I-0.060
G01 Z-0.900 F30
G03 F360
X50.490Y28.940 I-0.060
G01 Z-1.050 F30
G03 F360
X50.490Y28.940 I-0.060
G01 Z-1.200 F30
G03 F360
X50.490Y28.940 I-0.060
G01 Z-1.350 F30
G03 F360
X50.490Y28.940 I-0.060
G01 Z-1.500 F30
G03 F360
X50.490Y28.940 I-0.060
G01 Z-1.650 F30
G03 F360
X50.490Y28.940 I-0.060
G01 Z-1.800 F30
G03 F360
X50.490Y28.940 I-0.060
G01 Z-1.850 F30
G03 F360
X50.490Y28.940 I-0.060
G00 Z5.000
G00 X50.490Y44.180
G01 Z-0.150 F30
G03 F360
X50.490Y44.180 I-0.060
G01 Z-0.300 F30
G03 F360
X50.490Y44.180 I-0.060
G01 Z-0.450 F30
G03 F360
X50.490Y44.180 I-0.060
G01 Z-0.600 F30
G03 F360
X50.490Y44.180 I-0.060
G01 Z-0.750 F30
G03 F360
X50.490Y44.180 I-0.060
G01 Z-0.900 F30
G03 F360
X50.490Y44.180 I-0.060
G01 Z-1.050 F30
G03 F360
X50.490Y44.180 I-0.060
G01 Z-1.200 F30
G03 F360
X50.490Y44.180 I-0.060
G01 Z-1.350 F30
G03 F360
X50.490Y44.180 I-0.060
G01 Z-1.500 F30
G03 F360
X50.490Y44.180 I-0.060
G01 Z-1.650 F30
G03 F360
X50.490Y44.180 I-0.060
G01 Z-1.800 F30
G03 F360
X50.490Y44.180 I-0.060
G01 Z-1.850 F30
G03 F360
X50.490Y44.180 I-0.060
G00 Z5.000
G00 X53.030Y28.940
G01 Z-0.150 F30
G03 F360
X53.030Y28.940 I-0.060
G01 Z-0.300 F30
G03 F360
X53.030Y28.940 I-0.060
G01 Z-0.450 F30
G03 F360
X53.030Y28.940 I-0.060
G01 Z-0.600 F30
G03 F360
X53.030Y28.940 I-0.060
G01 Z-0.750 F30
G03 F360
X53.030Y28.940 I-0.060
G01 Z-0.900 F30
G03 F360
X53.030Y28.940 I-0.060
G01 Z-1.050 F30
G03 F360
X53.030Y28.940 I-0.060
G01 Z-1.200 F30
G03 F360
X53.030Y28.940 I-0.060
G01 Z-1.350 F30
G03 F360
X53.030Y28.940 I-0.060
G01 Z-1.500 F30
G03 F360
X53.030Y28.940 I-0.060
G01 Z-1.650 F30
G03 F360
X53.030Y28.940 I-0.060
G01 Z-1.800 F30
G03 F360
X53.030Y28.940 I-0.060
G01 Z-1.850 F30
G03 F360
X53.030Y28.940 I-0.060
G00 Z5.000
G00 X60.650Y44.180
G01 Z-0.150 F30
G03 F360
X60.650Y44.180 I-0.060
G01 Z-0.300 F30
G03 F360
X60.650Y44.180 I-0.060
G01 Z-0.450 F30
G03 F360
X60.650Y44.180 I-0.060
G01 Z-0.600 F30
G03 F360
X60.650Y44.180 I-0.060
G01 Z-0.750 F30
G03 F360
X60.650Y44.180 I-0.060
G01 Z-0.900 F30
G03 F360
X60.650Y44.180 I-0.060
G01 Z-1.050 F30
G03 F360
X60.650Y44.180 I-0.060
G01 Z-1.200 F30
G03 F360
X60.650Y44.180 I-0.060
G01 Z-1.350 F30
G03 F360
X60.650Y44.180 I-0.060
G01 Z-1.500 F30
G03 F360
X60.650Y44.180 I-0.060
G01 Z-1.650 F30
G03 F360
X60.650Y44.180 I-0.060
G01 Z-1.800 F30
G03 F360
X60.650Y44.180 I-0.060
G01 Z-1.850 F30
G03 F360
X60.650Y44.180 I-0.060
G00 Z5.000
G00 X58.110Y28.940
G01 Z-0.150 F30
G03 F360
X58.110Y28.940 I-0.060
G01 Z-0.300 F30
G03 F360
X58.110Y28.940 I-0.060
G01 Z-0.450 F30
G03 F360
X58.110Y28.940 I-0.060
G01 Z-0.600 F30
G03 F360
X58.110Y28.940 I-0.060
G01 Z-0.750 F30
G03 F360
X58.110Y28.940 I-0.060
G01 Z-0.900 F30
G03 F360
X58.110Y28.940 I-0.060
G01 Z-1.050 F30
G03 F360
X58.110Y28.940 I-0.060
G01 Z-1.200 F30
G03 F360
X58.110Y28.940 I-0.060
G01 Z-1.350 F30
G03 F360
X58.110Y28.940 I-0.060
G01 Z-1.500 F30
G03 F360
X58.110Y28.940 I-0.060
G01 Z-1.650 F30
G03 F360
X58.110Y28.940 I-0.060
G01 Z-1.800 F30
G03 F360
X58.110Y28.940 I-0.060
G01 Z-1.850 F30
G03 F360
X58.110Y28.940 I-0.060
G00 Z5.000
G00 X55.570Y28.940
G01 Z-0.150 F30
G03 F360
X55.570Y28.940 I-0.060
G01 Z-0.300 F30
G03 F360
X55.570Y28.940 I-0.060
G01 Z-0.450 F30
G03 F360
X55.570Y28.940 I-0.060
G01 Z-0.600 F30
G03 F360
X55.570Y28.940 I-0.060
G01 Z-0.750 F30
G03 F360
X55.570Y28.940 I-0.060
G01 Z-0.900 F30
G03 F360
X55.570Y28.940 I-0.060
G01 Z-1.050 F30
G03 F360
X55.570Y28.940 I-0.060
G01 Z-1.200 F30
G03 F360
X55.570Y28.940 I-0.060
G01 Z-1.350 F30
G03 F360
X55.570Y28.940 I-0.060
G01 Z-1.500 F30
G03 F360
X55.570Y28.940 I-0.060
G01 Z-1.650 F30
G03 F360
X55.570Y28.940 I-0.060
G01 Z-1.800 F30
G03 F360
X55.570Y28.940 I-0.060
G01 Z-1.850 F30
G03 F360
X55.570Y28.940 I-0.060
G00 Z5.000
G00 X55.570Y44.180
G01 Z-0.150 F30
G03 F360
X55.570Y44.180 I-0.060
G01 Z-0.300 F30
G03 F360
X55.570Y44.180 I-0.060
G01 Z-0.450 F30
G03 F360
X55.570Y44.180 I-0.060
G01 Z-0.600 F30
G03 F360
X55.570Y44.180 I-0.060
G01 Z-0.750 F30
G03 F360
X55.570Y44.180 I-0.060
G01 Z-0.900 F30
G03 F360
X55.570Y44.180 I-0.060
G01 Z-1.050 F30
G03 F360
X55.570Y44.180 I-0.060
G01 Z-1.200 F30
G03 F360
X55.570Y44.180 I-0.060
G01 Z-1.350 F30
G03 F360
X55.570Y44.180 I-0.060
G01 Z-1.500 F30
G03 F360
X55.570Y44.180 I-0.060
G01 Z-1.650 F30
G03 F360
X55.570Y44.180 I-0.060
G01 Z-1.800 F30
G03 F360
X55.570Y44.180 I-0.060
G01 Z-1.850 F30
G03 F360
X55.570Y44.180 I-0.060
G00 Z5.000
M05
G04 P4000
G00 X0Y0
