(RS-274 Compatible G-code generated for UCCNC controller and Stepcraft 2 Mill)
(Created by in EagleCAD with the stepcraft.ulp 0.1.)
(File: "Proto.brd" created on: 26/04/2019 11:12)
(Use a 1/32inch Bit)

G90 G94 G49
G21
G00 Z5
G00 X0Y0
S12000 M03
G04 P4000
G00 Z5.000
G00 X74.290Y49.480
G01 Z-0.150 F30
G01 X74.290Y5.040 F360
G02
X69.480Y0.230 R4.810
G01 X5.040Y0.230 F360
G02
X0.230Y5.040 R4.810
G01 X0.230Y49.480 F360
G02
X5.040Y54.290 R4.810
G01 X69.480Y54.290 F360
G02
X74.290Y49.480 R4.810
G01 Z-0.300 F30
G01 X74.290Y5.040 F360
G02
X69.480Y0.230 R4.810
G01 X5.040Y0.230 F360
G02
X0.230Y5.040 R4.810
G01 X0.230Y49.480 F360
G02
X5.040Y54.290 R4.810
G01 X69.480Y54.290 F360
G02
X74.290Y49.480 R4.810
G01 Z-0.450 F30
G01 X74.290Y5.040 F360
G02
X69.480Y0.230 R4.810
G01 X5.040Y0.230 F360
G02
X0.230Y5.040 R4.810
G01 X0.230Y49.480 F360
G02
X5.040Y54.290 R4.810
G01 X69.480Y54.290 F360
G02
X74.290Y49.480 R4.810
G01 Z-0.600 F30
G01 X74.290Y5.040 F360
G02
X69.480Y0.230 R4.810
G01 X5.040Y0.230 F360
G02
X0.230Y5.040 R4.810
G01 X0.230Y49.480 F360
G02
X5.040Y54.290 R4.810
G01 X69.480Y54.290 F360
G02
X74.290Y49.480 R4.810
G01 Z-0.750 F30
G01 X74.290Y5.040 F360
G02
X69.480Y0.230 R4.810
G01 X5.040Y0.230 F360
G02
X0.230Y5.040 R4.810
G01 X0.230Y49.480 F360
G02
X5.040Y54.290 R4.810
G01 X69.480Y54.290 F360
G02
X74.290Y49.480 R4.810
G01 Z-0.900 F30
G01 X74.290Y5.040 F360
G02
X69.480Y0.230 R4.810
G01 X5.040Y0.230 F360
G02
X0.230Y5.040 R4.810
G01 X0.230Y49.480 F360
G02
X5.040Y54.290 R4.810
G01 X69.480Y54.290 F360
G02
X74.290Y49.480 R4.810
G01 Z-1.050 F30
G01 X74.290Y5.040 F360
G02
X69.480Y0.230 R4.810
G01 X5.040Y0.230 F360
G02
X0.230Y5.040 R4.810
G01 X0.230Y49.480 F360
G02
X5.040Y54.290 R4.810
G01 X69.480Y54.290 F360
G02
X74.290Y49.480 R4.810
G01 Z-1.200 F30
G01 X74.290Y5.040 F360
G02
X69.480Y0.230 R4.810
G01 X5.040Y0.230 F360
G02
X0.230Y5.040 R4.810
G01 X0.230Y49.480 F360
G02
X5.040Y54.290 R4.810
G01 X69.480Y54.290 F360
G02
X74.290Y49.480 R4.810
G01 Z-1.350 F30
G01 X74.290Y5.040 F360
G02
X69.480Y0.230 R4.810
G01 X5.040Y0.230 F360
G02
X0.230Y5.040 R4.810
G01 X0.230Y49.480 F360
G02
X5.040Y54.290 R4.810
G01 X69.480Y54.290 F360
G02
X74.290Y49.480 R4.810
G01 Z-1.500 F30
G01 X74.290Y5.040 F360
G02
X69.480Y0.230 R4.810
G01 X5.040Y0.230 F360
G02
X0.230Y5.040 R4.810
G01 X0.230Y49.480 F360
G02
X5.040Y54.290 R4.810
G01 X69.480Y54.290 F360
G02
X74.290Y49.480 R4.810
G01 Z-1.650 F30
G01 X74.290Y5.040 F360
G02
X69.480Y0.230 R4.810
G01 X5.040Y0.230 F360
G02
X0.230Y5.040 R4.810
G01 X0.230Y49.480 F360
G02
X5.040Y54.290 R4.810
G01 X69.480Y54.290 F360
G02
X74.290Y49.480 R4.810
G01 Z-1.800 F30
G01 X74.290Y5.040 F360
G02
X69.480Y0.230 R4.810
G01 X5.040Y0.230 F360
G02
X0.230Y5.040 R4.810
G01 X0.230Y49.480 F360
G02
X5.040Y54.290 R4.810
G01 X69.480Y54.290 F360
G02
X74.290Y49.480 R4.810
G01 Z-1.850 F30
G01 X74.290Y5.040 F360
G02
X69.480Y0.230 R4.810
G01 X5.040Y0.230 F360
G02
X0.230Y5.040 R4.810
G01 X0.230Y49.480 F360
G02
X5.040Y54.290 R4.810
G01 X69.480Y54.290 F360
G02
X74.290Y49.480 R4.810
G00 Z5.000
M05
G04 P4000
G00 X0Y0
