(RS-274 Compatible G-code generated for UCCNC controller and Stepcraft 2 Mill)
(Created by in EagleCAD with the stepcraft.ulp 0.1.)
(File: "Proto.brd" created on: 03/04/2019 8:03)
(Use a 1/32inch Bit)

G90 G94 G49
G21
G00 Z5
G00 X0Y0
S12000 M03
G04 P4000
G00 X13.802Y27.940
G01 Z-0.150 F30
G03 F360
X13.802Y27.940 I-0.162
G01 Z-0.300 F30
G03 F360
X13.802Y27.940 I-0.162
G01 Z-0.450 F30
G03 F360
X13.802Y27.940 I-0.162
G01 Z-0.600 F30
G03 F360
X13.802Y27.940 I-0.162
G01 Z-0.750 F30
G03 F360
X13.802Y27.940 I-0.162
G01 Z-0.900 F30
G03 F360
X13.802Y27.940 I-0.162
G01 Z-1.050 F30
G03 F360
X13.802Y27.940 I-0.162
G01 Z-1.200 F30
G03 F360
X13.802Y27.940 I-0.162
G01 Z-1.350 F30
G03 F360
X13.802Y27.940 I-0.162
G01 Z-1.500 F30
G03 F360
X13.802Y27.940 I-0.162
G01 Z-1.650 F30
G03 F360
X13.802Y27.940 I-0.162
G01 Z-1.750 F30
G03 F360
X13.802Y27.940 I-0.162
G00 Z5.000
G00 X13.802Y35.560
G01 Z-0.150 F30
G03 F360
X13.802Y35.560 I-0.162
G01 Z-0.300 F30
G03 F360
X13.802Y35.560 I-0.162
G01 Z-0.450 F30
G03 F360
X13.802Y35.560 I-0.162
G01 Z-0.600 F30
G03 F360
X13.802Y35.560 I-0.162
G01 Z-0.750 F30
G03 F360
X13.802Y35.560 I-0.162
G01 Z-0.900 F30
G03 F360
X13.802Y35.560 I-0.162
G01 Z-1.050 F30
G03 F360
X13.802Y35.560 I-0.162
G01 Z-1.200 F30
G03 F360
X13.802Y35.560 I-0.162
G01 Z-1.350 F30
G03 F360
X13.802Y35.560 I-0.162
G01 Z-1.500 F30
G03 F360
X13.802Y35.560 I-0.162
G01 Z-1.650 F30
G03 F360
X13.802Y35.560 I-0.162
G01 Z-1.750 F30
G03 F360
X13.802Y35.560 I-0.162
G00 Z5.000
G00 X11.262Y39.370
G01 Z-0.150 F30
G03 F360
X11.262Y39.370 I-0.162
G01 Z-0.300 F30
G03 F360
X11.262Y39.370 I-0.162
G01 Z-0.450 F30
G03 F360
X11.262Y39.370 I-0.162
G01 Z-0.600 F30
G03 F360
X11.262Y39.370 I-0.162
G01 Z-0.750 F30
G03 F360
X11.262Y39.370 I-0.162
G01 Z-0.900 F30
G03 F360
X11.262Y39.370 I-0.162
G01 Z-1.050 F30
G03 F360
X11.262Y39.370 I-0.162
G01 Z-1.200 F30
G03 F360
X11.262Y39.370 I-0.162
G01 Z-1.350 F30
G03 F360
X11.262Y39.370 I-0.162
G01 Z-1.500 F30
G03 F360
X11.262Y39.370 I-0.162
G01 Z-1.650 F30
G03 F360
X11.262Y39.370 I-0.162
G01 Z-1.750 F30
G03 F360
X11.262Y39.370 I-0.162
G00 Z5.000
G00 X13.802Y31.750
G01 Z-0.150 F30
G03 F360
X13.802Y31.750 I-0.162
G01 Z-0.300 F30
G03 F360
X13.802Y31.750 I-0.162
G01 Z-0.450 F30
G03 F360
X13.802Y31.750 I-0.162
G01 Z-0.600 F30
G03 F360
X13.802Y31.750 I-0.162
G01 Z-0.750 F30
G03 F360
X13.802Y31.750 I-0.162
G01 Z-0.900 F30
G03 F360
X13.802Y31.750 I-0.162
G01 Z-1.050 F30
G03 F360
X13.802Y31.750 I-0.162
G01 Z-1.200 F30
G03 F360
X13.802Y31.750 I-0.162
G01 Z-1.350 F30
G03 F360
X13.802Y31.750 I-0.162
G01 Z-1.500 F30
G03 F360
X13.802Y31.750 I-0.162
G01 Z-1.650 F30
G03 F360
X13.802Y31.750 I-0.162
G01 Z-1.750 F30
G03 F360
X13.802Y31.750 I-0.162
G00 Z5.000
G00 X13.802Y39.370
G01 Z-0.150 F30
G03 F360
X13.802Y39.370 I-0.162
G01 Z-0.300 F30
G03 F360
X13.802Y39.370 I-0.162
G01 Z-0.450 F30
G03 F360
X13.802Y39.370 I-0.162
G01 Z-0.600 F30
G03 F360
X13.802Y39.370 I-0.162
G01 Z-0.750 F30
G03 F360
X13.802Y39.370 I-0.162
G01 Z-0.900 F30
G03 F360
X13.802Y39.370 I-0.162
G01 Z-1.050 F30
G03 F360
X13.802Y39.370 I-0.162
G01 Z-1.200 F30
G03 F360
X13.802Y39.370 I-0.162
G01 Z-1.350 F30
G03 F360
X13.802Y39.370 I-0.162
G01 Z-1.500 F30
G03 F360
X13.802Y39.370 I-0.162
G01 Z-1.650 F30
G03 F360
X13.802Y39.370 I-0.162
G01 Z-1.750 F30
G03 F360
X13.802Y39.370 I-0.162
G00 Z5.000
G00 X3.642Y39.370
G01 Z-0.150 F30
G03 F360
X3.642Y39.370 I-0.162
G01 Z-0.300 F30
G03 F360
X3.642Y39.370 I-0.162
G01 Z-0.450 F30
G03 F360
X3.642Y39.370 I-0.162
G01 Z-0.600 F30
G03 F360
X3.642Y39.370 I-0.162
G01 Z-0.750 F30
G03 F360
X3.642Y39.370 I-0.162
G01 Z-0.900 F30
G03 F360
X3.642Y39.370 I-0.162
G01 Z-1.050 F30
G03 F360
X3.642Y39.370 I-0.162
G01 Z-1.200 F30
G03 F360
X3.642Y39.370 I-0.162
G01 Z-1.350 F30
G03 F360
X3.642Y39.370 I-0.162
G01 Z-1.500 F30
G03 F360
X3.642Y39.370 I-0.162
G01 Z-1.650 F30
G03 F360
X3.642Y39.370 I-0.162
G01 Z-1.750 F30
G03 F360
X3.642Y39.370 I-0.162
G00 Z5.000
G00 X61.910Y36.830
G01 Z-0.150 F30
G03 F360
X61.910Y36.830 I-0.010
G01 Z-0.300 F30
G03 F360
X61.910Y36.830 I-0.010
G01 Z-0.450 F30
G03 F360
X61.910Y36.830 I-0.010
G01 Z-0.600 F30
G03 F360
X61.910Y36.830 I-0.010
G01 Z-0.750 F30
G03 F360
X61.910Y36.830 I-0.010
G01 Z-0.900 F30
G03 F360
X61.910Y36.830 I-0.010
G01 Z-1.050 F30
G03 F360
X61.910Y36.830 I-0.010
G01 Z-1.200 F30
G03 F360
X61.910Y36.830 I-0.010
G01 Z-1.350 F30
G03 F360
X61.910Y36.830 I-0.010
G01 Z-1.500 F30
G03 F360
X61.910Y36.830 I-0.010
G01 Z-1.650 F30
G03 F360
X61.910Y36.830 I-0.010
G01 Z-1.750 F30
G03 F360
X61.910Y36.830 I-0.010
G00 Z5.000
G00 X46.670Y36.830
G01 Z-0.150 F30
G03 F360
X46.670Y36.830 I-0.010
G01 Z-0.300 F30
G03 F360
X46.670Y36.830 I-0.010
G01 Z-0.450 F30
G03 F360
X46.670Y36.830 I-0.010
G01 Z-0.600 F30
G03 F360
X46.670Y36.830 I-0.010
G01 Z-0.750 F30
G03 F360
X46.670Y36.830 I-0.010
G01 Z-0.900 F30
G03 F360
X46.670Y36.830 I-0.010
G01 Z-1.050 F30
G03 F360
X46.670Y36.830 I-0.010
G01 Z-1.200 F30
G03 F360
X46.670Y36.830 I-0.010
G01 Z-1.350 F30
G03 F360
X46.670Y36.830 I-0.010
G01 Z-1.500 F30
G03 F360
X46.670Y36.830 I-0.010
G01 Z-1.650 F30
G03 F360
X46.670Y36.830 I-0.010
G01 Z-1.750 F30
G03 F360
X46.670Y36.830 I-0.010
G00 Z5.000
G00 X23.860Y44.450
G01 Z-0.150 F30
G03 F360
X23.860Y44.450 I-0.060
G01 Z-0.300 F30
G03 F360
X23.860Y44.450 I-0.060
G01 Z-0.450 F30
G03 F360
X23.860Y44.450 I-0.060
G01 Z-0.600 F30
G03 F360
X23.860Y44.450 I-0.060
G01 Z-0.750 F30
G03 F360
X23.860Y44.450 I-0.060
G01 Z-0.900 F30
G03 F360
X23.860Y44.450 I-0.060
G01 Z-1.050 F30
G03 F360
X23.860Y44.450 I-0.060
G01 Z-1.200 F30
G03 F360
X23.860Y44.450 I-0.060
G01 Z-1.350 F30
G03 F360
X23.860Y44.450 I-0.060
G01 Z-1.500 F30
G03 F360
X23.860Y44.450 I-0.060
G01 Z-1.650 F30
G03 F360
X23.860Y44.450 I-0.060
G01 Z-1.750 F30
G03 F360
X23.860Y44.450 I-0.060
G00 Z5.000
G00 X49.260Y44.450
G01 Z-0.150 F30
G03 F360
X49.260Y44.450 I-0.060
G01 Z-0.300 F30
G03 F360
X49.260Y44.450 I-0.060
G01 Z-0.450 F30
G03 F360
X49.260Y44.450 I-0.060
G01 Z-0.600 F30
G03 F360
X49.260Y44.450 I-0.060
G01 Z-0.750 F30
G03 F360
X49.260Y44.450 I-0.060
G01 Z-0.900 F30
G03 F360
X49.260Y44.450 I-0.060
G01 Z-1.050 F30
G03 F360
X49.260Y44.450 I-0.060
G01 Z-1.200 F30
G03 F360
X49.260Y44.450 I-0.060
G01 Z-1.350 F30
G03 F360
X49.260Y44.450 I-0.060
G01 Z-1.500 F30
G03 F360
X49.260Y44.450 I-0.060
G01 Z-1.650 F30
G03 F360
X49.260Y44.450 I-0.060
G01 Z-1.750 F30
G03 F360
X49.260Y44.450 I-0.060
G00 Z5.000
G00 X8.570Y44.450
G01 Z-0.150 F30
G03 F360
X8.570Y44.450 I-0.010
G01 Z-0.300 F30
G03 F360
X8.570Y44.450 I-0.010
G01 Z-0.450 F30
G03 F360
X8.570Y44.450 I-0.010
G01 Z-0.600 F30
G03 F360
X8.570Y44.450 I-0.010
G01 Z-0.750 F30
G03 F360
X8.570Y44.450 I-0.010
G01 Z-0.900 F30
G03 F360
X8.570Y44.450 I-0.010
G01 Z-1.050 F30
G03 F360
X8.570Y44.450 I-0.010
G01 Z-1.200 F30
G03 F360
X8.570Y44.450 I-0.010
G01 Z-1.350 F30
G03 F360
X8.570Y44.450 I-0.010
G01 Z-1.500 F30
G03 F360
X8.570Y44.450 I-0.010
G01 Z-1.650 F30
G03 F360
X8.570Y44.450 I-0.010
G01 Z-1.750 F30
G03 F360
X8.570Y44.450 I-0.010
G00 Z5.000
G00 X13.650Y44.450
G01 Z-0.150 F30
G03 F360
X13.650Y44.450 I-0.010
G01 Z-0.300 F30
G03 F360
X13.650Y44.450 I-0.010
G01 Z-0.450 F30
G03 F360
X13.650Y44.450 I-0.010
G01 Z-0.600 F30
G03 F360
X13.650Y44.450 I-0.010
G01 Z-0.750 F30
G03 F360
X13.650Y44.450 I-0.010
G01 Z-0.900 F30
G03 F360
X13.650Y44.450 I-0.010
G01 Z-1.050 F30
G03 F360
X13.650Y44.450 I-0.010
G01 Z-1.200 F30
G03 F360
X13.650Y44.450 I-0.010
G01 Z-1.350 F30
G03 F360
X13.650Y44.450 I-0.010
G01 Z-1.500 F30
G03 F360
X13.650Y44.450 I-0.010
G01 Z-1.650 F30
G03 F360
X13.650Y44.450 I-0.010
G01 Z-1.750 F30
G03 F360
X13.650Y44.450 I-0.010
G00 Z5.000
G00 X40.320Y19.050
G01 Z-0.150 F30
G03 F360
X40.320Y19.050 I-0.010
G01 Z-0.300 F30
G03 F360
X40.320Y19.050 I-0.010
G01 Z-0.450 F30
G03 F360
X40.320Y19.050 I-0.010
G01 Z-0.600 F30
G03 F360
X40.320Y19.050 I-0.010
G01 Z-0.750 F30
G03 F360
X40.320Y19.050 I-0.010
G01 Z-0.900 F30
G03 F360
X40.320Y19.050 I-0.010
G01 Z-1.050 F30
G03 F360
X40.320Y19.050 I-0.010
G01 Z-1.200 F30
G03 F360
X40.320Y19.050 I-0.010
G01 Z-1.350 F30
G03 F360
X40.320Y19.050 I-0.010
G01 Z-1.500 F30
G03 F360
X40.320Y19.050 I-0.010
G01 Z-1.650 F30
G03 F360
X40.320Y19.050 I-0.010
G01 Z-1.750 F30
G03 F360
X40.320Y19.050 I-0.010
G00 Z5.000
G00 X35.240Y19.050
G01 Z-0.150 F30
G03 F360
X35.240Y19.050 I-0.010
G01 Z-0.300 F30
G03 F360
X35.240Y19.050 I-0.010
G01 Z-0.450 F30
G03 F360
X35.240Y19.050 I-0.010
G01 Z-0.600 F30
G03 F360
X35.240Y19.050 I-0.010
G01 Z-0.750 F30
G03 F360
X35.240Y19.050 I-0.010
G01 Z-0.900 F30
G03 F360
X35.240Y19.050 I-0.010
G01 Z-1.050 F30
G03 F360
X35.240Y19.050 I-0.010
G01 Z-1.200 F30
G03 F360
X35.240Y19.050 I-0.010
G01 Z-1.350 F30
G03 F360
X35.240Y19.050 I-0.010
G01 Z-1.500 F30
G03 F360
X35.240Y19.050 I-0.010
G01 Z-1.650 F30
G03 F360
X35.240Y19.050 I-0.010
G01 Z-1.750 F30
G03 F360
X35.240Y19.050 I-0.010
G00 Z5.000
G00 X50.480Y19.050
G01 Z-0.150 F30
G03 F360
X50.480Y19.050 I-0.010
G01 Z-0.300 F30
G03 F360
X50.480Y19.050 I-0.010
G01 Z-0.450 F30
G03 F360
X50.480Y19.050 I-0.010
G01 Z-0.600 F30
G03 F360
X50.480Y19.050 I-0.010
G01 Z-0.750 F30
G03 F360
X50.480Y19.050 I-0.010
G01 Z-0.900 F30
G03 F360
X50.480Y19.050 I-0.010
G01 Z-1.050 F30
G03 F360
X50.480Y19.050 I-0.010
G01 Z-1.200 F30
G03 F360
X50.480Y19.050 I-0.010
G01 Z-1.350 F30
G03 F360
X50.480Y19.050 I-0.010
G01 Z-1.500 F30
G03 F360
X50.480Y19.050 I-0.010
G01 Z-1.650 F30
G03 F360
X50.480Y19.050 I-0.010
G01 Z-1.750 F30
G03 F360
X50.480Y19.050 I-0.010
G00 Z5.000
G00 X65.720Y19.050
G01 Z-0.150 F30
G03 F360
X65.720Y19.050 I-0.010
G01 Z-0.300 F30
G03 F360
X65.720Y19.050 I-0.010
G01 Z-0.450 F30
G03 F360
X65.720Y19.050 I-0.010
G01 Z-0.600 F30
G03 F360
X65.720Y19.050 I-0.010
G01 Z-0.750 F30
G03 F360
X65.720Y19.050 I-0.010
G01 Z-0.900 F30
G03 F360
X65.720Y19.050 I-0.010
G01 Z-1.050 F30
G03 F360
X65.720Y19.050 I-0.010
G01 Z-1.200 F30
G03 F360
X65.720Y19.050 I-0.010
G01 Z-1.350 F30
G03 F360
X65.720Y19.050 I-0.010
G01 Z-1.500 F30
G03 F360
X65.720Y19.050 I-0.010
G01 Z-1.650 F30
G03 F360
X65.720Y19.050 I-0.010
G01 Z-1.750 F30
G03 F360
X65.720Y19.050 I-0.010
G00 Z5.000
G00 X28.940Y44.450
G01 Z-0.150 F30
G03 F360
X28.940Y44.450 I-0.060
G01 Z-0.300 F30
G03 F360
X28.940Y44.450 I-0.060
G01 Z-0.450 F30
G03 F360
X28.940Y44.450 I-0.060
G01 Z-0.600 F30
G03 F360
X28.940Y44.450 I-0.060
G01 Z-0.750 F30
G03 F360
X28.940Y44.450 I-0.060
G01 Z-0.900 F30
G03 F360
X28.940Y44.450 I-0.060
G01 Z-1.050 F30
G03 F360
X28.940Y44.450 I-0.060
G01 Z-1.200 F30
G03 F360
X28.940Y44.450 I-0.060
G01 Z-1.350 F30
G03 F360
X28.940Y44.450 I-0.060
G01 Z-1.500 F30
G03 F360
X28.940Y44.450 I-0.060
G01 Z-1.650 F30
G03 F360
X28.940Y44.450 I-0.060
G01 Z-1.750 F30
G03 F360
X28.940Y44.450 I-0.060
G00 Z5.000
G00 X31.480Y44.450
G01 Z-0.150 F30
G03 F360
X31.480Y44.450 I-0.060
G01 Z-0.300 F30
G03 F360
X31.480Y44.450 I-0.060
G01 Z-0.450 F30
G03 F360
X31.480Y44.450 I-0.060
G01 Z-0.600 F30
G03 F360
X31.480Y44.450 I-0.060
G01 Z-0.750 F30
G03 F360
X31.480Y44.450 I-0.060
G01 Z-0.900 F30
G03 F360
X31.480Y44.450 I-0.060
G01 Z-1.050 F30
G03 F360
X31.480Y44.450 I-0.060
G01 Z-1.200 F30
G03 F360
X31.480Y44.450 I-0.060
G01 Z-1.350 F30
G03 F360
X31.480Y44.450 I-0.060
G01 Z-1.500 F30
G03 F360
X31.480Y44.450 I-0.060
G01 Z-1.650 F30
G03 F360
X31.480Y44.450 I-0.060
G01 Z-1.750 F30
G03 F360
X31.480Y44.450 I-0.060
G00 Z5.000
G00 X34.020Y44.450
G01 Z-0.150 F30
G03 F360
X34.020Y44.450 I-0.060
G01 Z-0.300 F30
G03 F360
X34.020Y44.450 I-0.060
G01 Z-0.450 F30
G03 F360
X34.020Y44.450 I-0.060
G01 Z-0.600 F30
G03 F360
X34.020Y44.450 I-0.060
G01 Z-0.750 F30
G03 F360
X34.020Y44.450 I-0.060
G01 Z-0.900 F30
G03 F360
X34.020Y44.450 I-0.060
G01 Z-1.050 F30
G03 F360
X34.020Y44.450 I-0.060
G01 Z-1.200 F30
G03 F360
X34.020Y44.450 I-0.060
G01 Z-1.350 F30
G03 F360
X34.020Y44.450 I-0.060
G01 Z-1.500 F30
G03 F360
X34.020Y44.450 I-0.060
G01 Z-1.650 F30
G03 F360
X34.020Y44.450 I-0.060
G01 Z-1.750 F30
G03 F360
X34.020Y44.450 I-0.060
G00 Z5.000
G00 X36.560Y44.450
G01 Z-0.150 F30
G03 F360
X36.560Y44.450 I-0.060
G01 Z-0.300 F30
G03 F360
X36.560Y44.450 I-0.060
G01 Z-0.450 F30
G03 F360
X36.560Y44.450 I-0.060
G01 Z-0.600 F30
G03 F360
X36.560Y44.450 I-0.060
G01 Z-0.750 F30
G03 F360
X36.560Y44.450 I-0.060
G01 Z-0.900 F30
G03 F360
X36.560Y44.450 I-0.060
G01 Z-1.050 F30
G03 F360
X36.560Y44.450 I-0.060
G01 Z-1.200 F30
G03 F360
X36.560Y44.450 I-0.060
G01 Z-1.350 F30
G03 F360
X36.560Y44.450 I-0.060
G01 Z-1.500 F30
G03 F360
X36.560Y44.450 I-0.060
G01 Z-1.650 F30
G03 F360
X36.560Y44.450 I-0.060
G01 Z-1.750 F30
G03 F360
X36.560Y44.450 I-0.060
G00 Z5.000
G00 X39.100Y44.450
G01 Z-0.150 F30
G03 F360
X39.100Y44.450 I-0.060
G01 Z-0.300 F30
G03 F360
X39.100Y44.450 I-0.060
G01 Z-0.450 F30
G03 F360
X39.100Y44.450 I-0.060
G01 Z-0.600 F30
G03 F360
X39.100Y44.450 I-0.060
G01 Z-0.750 F30
G03 F360
X39.100Y44.450 I-0.060
G01 Z-0.900 F30
G03 F360
X39.100Y44.450 I-0.060
G01 Z-1.050 F30
G03 F360
X39.100Y44.450 I-0.060
G01 Z-1.200 F30
G03 F360
X39.100Y44.450 I-0.060
G01 Z-1.350 F30
G03 F360
X39.100Y44.450 I-0.060
G01 Z-1.500 F30
G03 F360
X39.100Y44.450 I-0.060
G01 Z-1.650 F30
G03 F360
X39.100Y44.450 I-0.060
G01 Z-1.750 F30
G03 F360
X39.100Y44.450 I-0.060
G00 Z5.000
G00 X41.640Y44.450
G01 Z-0.150 F30
G03 F360
X41.640Y44.450 I-0.060
G01 Z-0.300 F30
G03 F360
X41.640Y44.450 I-0.060
G01 Z-0.450 F30
G03 F360
X41.640Y44.450 I-0.060
G01 Z-0.600 F30
G03 F360
X41.640Y44.450 I-0.060
G01 Z-0.750 F30
G03 F360
X41.640Y44.450 I-0.060
G01 Z-0.900 F30
G03 F360
X41.640Y44.450 I-0.060
G01 Z-1.050 F30
G03 F360
X41.640Y44.450 I-0.060
G01 Z-1.200 F30
G03 F360
X41.640Y44.450 I-0.060
G01 Z-1.350 F30
G03 F360
X41.640Y44.450 I-0.060
G01 Z-1.500 F30
G03 F360
X41.640Y44.450 I-0.060
G01 Z-1.650 F30
G03 F360
X41.640Y44.450 I-0.060
G01 Z-1.750 F30
G03 F360
X41.640Y44.450 I-0.060
G00 Z5.000
G00 X49.260Y24.130
G01 Z-0.150 F30
G03 F360
X49.260Y24.130 I-0.060
G01 Z-0.300 F30
G03 F360
X49.260Y24.130 I-0.060
G01 Z-0.450 F30
G03 F360
X49.260Y24.130 I-0.060
G01 Z-0.600 F30
G03 F360
X49.260Y24.130 I-0.060
G01 Z-0.750 F30
G03 F360
X49.260Y24.130 I-0.060
G01 Z-0.900 F30
G03 F360
X49.260Y24.130 I-0.060
G01 Z-1.050 F30
G03 F360
X49.260Y24.130 I-0.060
G01 Z-1.200 F30
G03 F360
X49.260Y24.130 I-0.060
G01 Z-1.350 F30
G03 F360
X49.260Y24.130 I-0.060
G01 Z-1.500 F30
G03 F360
X49.260Y24.130 I-0.060
G01 Z-1.650 F30
G03 F360
X49.260Y24.130 I-0.060
G01 Z-1.750 F30
G03 F360
X49.260Y24.130 I-0.060
G00 Z5.000
G00 X21.270Y19.050
G01 Z-0.150 F30
G03 F360
X21.270Y19.050 I-0.010
G01 Z-0.300 F30
G03 F360
X21.270Y19.050 I-0.010
G01 Z-0.450 F30
G03 F360
X21.270Y19.050 I-0.010
G01 Z-0.600 F30
G03 F360
X21.270Y19.050 I-0.010
G01 Z-0.750 F30
G03 F360
X21.270Y19.050 I-0.010
G01 Z-0.900 F30
G03 F360
X21.270Y19.050 I-0.010
G01 Z-1.050 F30
G03 F360
X21.270Y19.050 I-0.010
G01 Z-1.200 F30
G03 F360
X21.270Y19.050 I-0.010
G01 Z-1.350 F30
G03 F360
X21.270Y19.050 I-0.010
G01 Z-1.500 F30
G03 F360
X21.270Y19.050 I-0.010
G01 Z-1.650 F30
G03 F360
X21.270Y19.050 I-0.010
G01 Z-1.750 F30
G03 F360
X21.270Y19.050 I-0.010
G00 Z5.000
G00 X26.350Y19.050
G01 Z-0.150 F30
G03 F360
X26.350Y19.050 I-0.010
G01 Z-0.300 F30
G03 F360
X26.350Y19.050 I-0.010
G01 Z-0.450 F30
G03 F360
X26.350Y19.050 I-0.010
G01 Z-0.600 F30
G03 F360
X26.350Y19.050 I-0.010
G01 Z-0.750 F30
G03 F360
X26.350Y19.050 I-0.010
G01 Z-0.900 F30
G03 F360
X26.350Y19.050 I-0.010
G01 Z-1.050 F30
G03 F360
X26.350Y19.050 I-0.010
G01 Z-1.200 F30
G03 F360
X26.350Y19.050 I-0.010
G01 Z-1.350 F30
G03 F360
X26.350Y19.050 I-0.010
G01 Z-1.500 F30
G03 F360
X26.350Y19.050 I-0.010
G01 Z-1.650 F30
G03 F360
X26.350Y19.050 I-0.010
G01 Z-1.750 F30
G03 F360
X26.350Y19.050 I-0.010
G00 Z5.000
G00 X46.720Y29.210
G01 Z-0.150 F30
G03 F360
X46.720Y29.210 I-0.060
G01 Z-0.300 F30
G03 F360
X46.720Y29.210 I-0.060
G01 Z-0.450 F30
G03 F360
X46.720Y29.210 I-0.060
G01 Z-0.600 F30
G03 F360
X46.720Y29.210 I-0.060
G01 Z-0.750 F30
G03 F360
X46.720Y29.210 I-0.060
G01 Z-0.900 F30
G03 F360
X46.720Y29.210 I-0.060
G01 Z-1.050 F30
G03 F360
X46.720Y29.210 I-0.060
G01 Z-1.200 F30
G03 F360
X46.720Y29.210 I-0.060
G01 Z-1.350 F30
G03 F360
X46.720Y29.210 I-0.060
G01 Z-1.500 F30
G03 F360
X46.720Y29.210 I-0.060
G01 Z-1.650 F30
G03 F360
X46.720Y29.210 I-0.060
G01 Z-1.750 F30
G03 F360
X46.720Y29.210 I-0.060
G00 Z5.000
G00 X44.180Y29.210
G01 Z-0.150 F30
G03 F360
X44.180Y29.210 I-0.060
G01 Z-0.300 F30
G03 F360
X44.180Y29.210 I-0.060
G01 Z-0.450 F30
G03 F360
X44.180Y29.210 I-0.060
G01 Z-0.600 F30
G03 F360
X44.180Y29.210 I-0.060
G01 Z-0.750 F30
G03 F360
X44.180Y29.210 I-0.060
G01 Z-0.900 F30
G03 F360
X44.180Y29.210 I-0.060
G01 Z-1.050 F30
G03 F360
X44.180Y29.210 I-0.060
G01 Z-1.200 F30
G03 F360
X44.180Y29.210 I-0.060
G01 Z-1.350 F30
G03 F360
X44.180Y29.210 I-0.060
G01 Z-1.500 F30
G03 F360
X44.180Y29.210 I-0.060
G01 Z-1.650 F30
G03 F360
X44.180Y29.210 I-0.060
G01 Z-1.750 F30
G03 F360
X44.180Y29.210 I-0.060
G00 Z5.000
G00 X41.640Y29.210
G01 Z-0.150 F30
G03 F360
X41.640Y29.210 I-0.060
G01 Z-0.300 F30
G03 F360
X41.640Y29.210 I-0.060
G01 Z-0.450 F30
G03 F360
X41.640Y29.210 I-0.060
G01 Z-0.600 F30
G03 F360
X41.640Y29.210 I-0.060
G01 Z-0.750 F30
G03 F360
X41.640Y29.210 I-0.060
G01 Z-0.900 F30
G03 F360
X41.640Y29.210 I-0.060
G01 Z-1.050 F30
G03 F360
X41.640Y29.210 I-0.060
G01 Z-1.200 F30
G03 F360
X41.640Y29.210 I-0.060
G01 Z-1.350 F30
G03 F360
X41.640Y29.210 I-0.060
G01 Z-1.500 F30
G03 F360
X41.640Y29.210 I-0.060
G01 Z-1.650 F30
G03 F360
X41.640Y29.210 I-0.060
G01 Z-1.750 F30
G03 F360
X41.640Y29.210 I-0.060
G00 Z5.000
G00 X39.100Y29.210
G01 Z-0.150 F30
G03 F360
X39.100Y29.210 I-0.060
G01 Z-0.300 F30
G03 F360
X39.100Y29.210 I-0.060
G01 Z-0.450 F30
G03 F360
X39.100Y29.210 I-0.060
G01 Z-0.600 F30
G03 F360
X39.100Y29.210 I-0.060
G01 Z-0.750 F30
G03 F360
X39.100Y29.210 I-0.060
G01 Z-0.900 F30
G03 F360
X39.100Y29.210 I-0.060
G01 Z-1.050 F30
G03 F360
X39.100Y29.210 I-0.060
G01 Z-1.200 F30
G03 F360
X39.100Y29.210 I-0.060
G01 Z-1.350 F30
G03 F360
X39.100Y29.210 I-0.060
G01 Z-1.500 F30
G03 F360
X39.100Y29.210 I-0.060
G01 Z-1.650 F30
G03 F360
X39.100Y29.210 I-0.060
G01 Z-1.750 F30
G03 F360
X39.100Y29.210 I-0.060
G00 Z5.000
G00 X36.560Y29.210
G01 Z-0.150 F30
G03 F360
X36.560Y29.210 I-0.060
G01 Z-0.300 F30
G03 F360
X36.560Y29.210 I-0.060
G01 Z-0.450 F30
G03 F360
X36.560Y29.210 I-0.060
G01 Z-0.600 F30
G03 F360
X36.560Y29.210 I-0.060
G01 Z-0.750 F30
G03 F360
X36.560Y29.210 I-0.060
G01 Z-0.900 F30
G03 F360
X36.560Y29.210 I-0.060
G01 Z-1.050 F30
G03 F360
X36.560Y29.210 I-0.060
G01 Z-1.200 F30
G03 F360
X36.560Y29.210 I-0.060
G01 Z-1.350 F30
G03 F360
X36.560Y29.210 I-0.060
G01 Z-1.500 F30
G03 F360
X36.560Y29.210 I-0.060
G01 Z-1.650 F30
G03 F360
X36.560Y29.210 I-0.060
G01 Z-1.750 F30
G03 F360
X36.560Y29.210 I-0.060
G00 Z5.000
G00 X34.020Y29.210
G01 Z-0.150 F30
G03 F360
X34.020Y29.210 I-0.060
G01 Z-0.300 F30
G03 F360
X34.020Y29.210 I-0.060
G01 Z-0.450 F30
G03 F360
X34.020Y29.210 I-0.060
G01 Z-0.600 F30
G03 F360
X34.020Y29.210 I-0.060
G01 Z-0.750 F30
G03 F360
X34.020Y29.210 I-0.060
G01 Z-0.900 F30
G03 F360
X34.020Y29.210 I-0.060
G01 Z-1.050 F30
G03 F360
X34.020Y29.210 I-0.060
G01 Z-1.200 F30
G03 F360
X34.020Y29.210 I-0.060
G01 Z-1.350 F30
G03 F360
X34.020Y29.210 I-0.060
G01 Z-1.500 F30
G03 F360
X34.020Y29.210 I-0.060
G01 Z-1.650 F30
G03 F360
X34.020Y29.210 I-0.060
G01 Z-1.750 F30
G03 F360
X34.020Y29.210 I-0.060
G00 Z5.000
G00 X31.480Y29.210
G01 Z-0.150 F30
G03 F360
X31.480Y29.210 I-0.060
G01 Z-0.300 F30
G03 F360
X31.480Y29.210 I-0.060
G01 Z-0.450 F30
G03 F360
X31.480Y29.210 I-0.060
G01 Z-0.600 F30
G03 F360
X31.480Y29.210 I-0.060
G01 Z-0.750 F30
G03 F360
X31.480Y29.210 I-0.060
G01 Z-0.900 F30
G03 F360
X31.480Y29.210 I-0.060
G01 Z-1.050 F30
G03 F360
X31.480Y29.210 I-0.060
G01 Z-1.200 F30
G03 F360
X31.480Y29.210 I-0.060
G01 Z-1.350 F30
G03 F360
X31.480Y29.210 I-0.060
G01 Z-1.500 F30
G03 F360
X31.480Y29.210 I-0.060
G01 Z-1.650 F30
G03 F360
X31.480Y29.210 I-0.060
G01 Z-1.750 F30
G03 F360
X31.480Y29.210 I-0.060
G00 Z5.000
G00 X28.940Y29.210
G01 Z-0.150 F30
G03 F360
X28.940Y29.210 I-0.060
G01 Z-0.300 F30
G03 F360
X28.940Y29.210 I-0.060
G01 Z-0.450 F30
G03 F360
X28.940Y29.210 I-0.060
G01 Z-0.600 F30
G03 F360
X28.940Y29.210 I-0.060
G01 Z-0.750 F30
G03 F360
X28.940Y29.210 I-0.060
G01 Z-0.900 F30
G03 F360
X28.940Y29.210 I-0.060
G01 Z-1.050 F30
G03 F360
X28.940Y29.210 I-0.060
G01 Z-1.200 F30
G03 F360
X28.940Y29.210 I-0.060
G01 Z-1.350 F30
G03 F360
X28.940Y29.210 I-0.060
G01 Z-1.500 F30
G03 F360
X28.940Y29.210 I-0.060
G01 Z-1.650 F30
G03 F360
X28.940Y29.210 I-0.060
G01 Z-1.750 F30
G03 F360
X28.940Y29.210 I-0.060
G00 Z5.000
G00 X26.400Y29.210
G01 Z-0.150 F30
G03 F360
X26.400Y29.210 I-0.060
G01 Z-0.300 F30
G03 F360
X26.400Y29.210 I-0.060
G01 Z-0.450 F30
G03 F360
X26.400Y29.210 I-0.060
G01 Z-0.600 F30
G03 F360
X26.400Y29.210 I-0.060
G01 Z-0.750 F30
G03 F360
X26.400Y29.210 I-0.060
G01 Z-0.900 F30
G03 F360
X26.400Y29.210 I-0.060
G01 Z-1.050 F30
G03 F360
X26.400Y29.210 I-0.060
G01 Z-1.200 F30
G03 F360
X26.400Y29.210 I-0.060
G01 Z-1.350 F30
G03 F360
X26.400Y29.210 I-0.060
G01 Z-1.500 F30
G03 F360
X26.400Y29.210 I-0.060
G01 Z-1.650 F30
G03 F360
X26.400Y29.210 I-0.060
G01 Z-1.750 F30
G03 F360
X26.400Y29.210 I-0.060
G00 Z5.000
G00 X23.860Y29.210
G01 Z-0.150 F30
G03 F360
X23.860Y29.210 I-0.060
G01 Z-0.300 F30
G03 F360
X23.860Y29.210 I-0.060
G01 Z-0.450 F30
G03 F360
X23.860Y29.210 I-0.060
G01 Z-0.600 F30
G03 F360
X23.860Y29.210 I-0.060
G01 Z-0.750 F30
G03 F360
X23.860Y29.210 I-0.060
G01 Z-0.900 F30
G03 F360
X23.860Y29.210 I-0.060
G01 Z-1.050 F30
G03 F360
X23.860Y29.210 I-0.060
G01 Z-1.200 F30
G03 F360
X23.860Y29.210 I-0.060
G01 Z-1.350 F30
G03 F360
X23.860Y29.210 I-0.060
G01 Z-1.500 F30
G03 F360
X23.860Y29.210 I-0.060
G01 Z-1.650 F30
G03 F360
X23.860Y29.210 I-0.060
G01 Z-1.750 F30
G03 F360
X23.860Y29.210 I-0.060
G00 Z5.000
G00 X21.320Y29.210
G01 Z-0.150 F30
G03 F360
X21.320Y29.210 I-0.060
G01 Z-0.300 F30
G03 F360
X21.320Y29.210 I-0.060
G01 Z-0.450 F30
G03 F360
X21.320Y29.210 I-0.060
G01 Z-0.600 F30
G03 F360
X21.320Y29.210 I-0.060
G01 Z-0.750 F30
G03 F360
X21.320Y29.210 I-0.060
G01 Z-0.900 F30
G03 F360
X21.320Y29.210 I-0.060
G01 Z-1.050 F30
G03 F360
X21.320Y29.210 I-0.060
G01 Z-1.200 F30
G03 F360
X21.320Y29.210 I-0.060
G01 Z-1.350 F30
G03 F360
X21.320Y29.210 I-0.060
G01 Z-1.500 F30
G03 F360
X21.320Y29.210 I-0.060
G01 Z-1.650 F30
G03 F360
X21.320Y29.210 I-0.060
G01 Z-1.750 F30
G03 F360
X21.320Y29.210 I-0.060
G00 Z5.000
G00 X21.320Y44.450
G01 Z-0.150 F30
G03 F360
X21.320Y44.450 I-0.060
G01 Z-0.300 F30
G03 F360
X21.320Y44.450 I-0.060
G01 Z-0.450 F30
G03 F360
X21.320Y44.450 I-0.060
G01 Z-0.600 F30
G03 F360
X21.320Y44.450 I-0.060
G01 Z-0.750 F30
G03 F360
X21.320Y44.450 I-0.060
G01 Z-0.900 F30
G03 F360
X21.320Y44.450 I-0.060
G01 Z-1.050 F30
G03 F360
X21.320Y44.450 I-0.060
G01 Z-1.200 F30
G03 F360
X21.320Y44.450 I-0.060
G01 Z-1.350 F30
G03 F360
X21.320Y44.450 I-0.060
G01 Z-1.500 F30
G03 F360
X21.320Y44.450 I-0.060
G01 Z-1.650 F30
G03 F360
X21.320Y44.450 I-0.060
G01 Z-1.750 F30
G03 F360
X21.320Y44.450 I-0.060
G00 Z5.000
G00 X49.260Y29.210
G01 Z-0.150 F30
G03 F360
X49.260Y29.210 I-0.060
G01 Z-0.300 F30
G03 F360
X49.260Y29.210 I-0.060
G01 Z-0.450 F30
G03 F360
X49.260Y29.210 I-0.060
G01 Z-0.600 F30
G03 F360
X49.260Y29.210 I-0.060
G01 Z-0.750 F30
G03 F360
X49.260Y29.210 I-0.060
G01 Z-0.900 F30
G03 F360
X49.260Y29.210 I-0.060
G01 Z-1.050 F30
G03 F360
X49.260Y29.210 I-0.060
G01 Z-1.200 F30
G03 F360
X49.260Y29.210 I-0.060
G01 Z-1.350 F30
G03 F360
X49.260Y29.210 I-0.060
G01 Z-1.500 F30
G03 F360
X49.260Y29.210 I-0.060
G01 Z-1.650 F30
G03 F360
X49.260Y29.210 I-0.060
G01 Z-1.750 F30
G03 F360
X49.260Y29.210 I-0.060
G00 Z5.000
G00 X54.340Y44.450
G01 Z-0.150 F30
G03 F360
X54.340Y44.450 I-0.060
G01 Z-0.300 F30
G03 F360
X54.340Y44.450 I-0.060
G01 Z-0.450 F30
G03 F360
X54.340Y44.450 I-0.060
G01 Z-0.600 F30
G03 F360
X54.340Y44.450 I-0.060
G01 Z-0.750 F30
G03 F360
X54.340Y44.450 I-0.060
G01 Z-0.900 F30
G03 F360
X54.340Y44.450 I-0.060
G01 Z-1.050 F30
G03 F360
X54.340Y44.450 I-0.060
G01 Z-1.200 F30
G03 F360
X54.340Y44.450 I-0.060
G01 Z-1.350 F30
G03 F360
X54.340Y44.450 I-0.060
G01 Z-1.500 F30
G03 F360
X54.340Y44.450 I-0.060
G01 Z-1.650 F30
G03 F360
X54.340Y44.450 I-0.060
G01 Z-1.750 F30
G03 F360
X54.340Y44.450 I-0.060
G00 Z5.000
G00 X13.650Y16.510
G01 Z-0.150 F30
G03 F360
X13.650Y16.510 I-0.010
G01 Z-0.300 F30
G03 F360
X13.650Y16.510 I-0.010
G01 Z-0.450 F30
G03 F360
X13.650Y16.510 I-0.010
G01 Z-0.600 F30
G03 F360
X13.650Y16.510 I-0.010
G01 Z-0.750 F30
G03 F360
X13.650Y16.510 I-0.010
G01 Z-0.900 F30
G03 F360
X13.650Y16.510 I-0.010
G01 Z-1.050 F30
G03 F360
X13.650Y16.510 I-0.010
G01 Z-1.200 F30
G03 F360
X13.650Y16.510 I-0.010
G01 Z-1.350 F30
G03 F360
X13.650Y16.510 I-0.010
G01 Z-1.500 F30
G03 F360
X13.650Y16.510 I-0.010
G01 Z-1.650 F30
G03 F360
X13.650Y16.510 I-0.010
G01 Z-1.750 F30
G03 F360
X13.650Y16.510 I-0.010
G00 Z5.000
G00 X11.110Y16.510
G01 Z-0.150 F30
G03 F360
X11.110Y16.510 I-0.010
G01 Z-0.300 F30
G03 F360
X11.110Y16.510 I-0.010
G01 Z-0.450 F30
G03 F360
X11.110Y16.510 I-0.010
G01 Z-0.600 F30
G03 F360
X11.110Y16.510 I-0.010
G01 Z-0.750 F30
G03 F360
X11.110Y16.510 I-0.010
G01 Z-0.900 F30
G03 F360
X11.110Y16.510 I-0.010
G01 Z-1.050 F30
G03 F360
X11.110Y16.510 I-0.010
G01 Z-1.200 F30
G03 F360
X11.110Y16.510 I-0.010
G01 Z-1.350 F30
G03 F360
X11.110Y16.510 I-0.010
G01 Z-1.500 F30
G03 F360
X11.110Y16.510 I-0.010
G01 Z-1.650 F30
G03 F360
X11.110Y16.510 I-0.010
G01 Z-1.750 F30
G03 F360
X11.110Y16.510 I-0.010
G00 Z5.000
G00 X8.570Y16.510
G01 Z-0.150 F30
G03 F360
X8.570Y16.510 I-0.010
G01 Z-0.300 F30
G03 F360
X8.570Y16.510 I-0.010
G01 Z-0.450 F30
G03 F360
X8.570Y16.510 I-0.010
G01 Z-0.600 F30
G03 F360
X8.570Y16.510 I-0.010
G01 Z-0.750 F30
G03 F360
X8.570Y16.510 I-0.010
G01 Z-0.900 F30
G03 F360
X8.570Y16.510 I-0.010
G01 Z-1.050 F30
G03 F360
X8.570Y16.510 I-0.010
G01 Z-1.200 F30
G03 F360
X8.570Y16.510 I-0.010
G01 Z-1.350 F30
G03 F360
X8.570Y16.510 I-0.010
G01 Z-1.500 F30
G03 F360
X8.570Y16.510 I-0.010
G01 Z-1.650 F30
G03 F360
X8.570Y16.510 I-0.010
G01 Z-1.750 F30
G03 F360
X8.570Y16.510 I-0.010
G00 Z5.000
G00 X6.030Y16.510
G01 Z-0.150 F30
G03 F360
X6.030Y16.510 I-0.010
G01 Z-0.300 F30
G03 F360
X6.030Y16.510 I-0.010
G01 Z-0.450 F30
G03 F360
X6.030Y16.510 I-0.010
G01 Z-0.600 F30
G03 F360
X6.030Y16.510 I-0.010
G01 Z-0.750 F30
G03 F360
X6.030Y16.510 I-0.010
G01 Z-0.900 F30
G03 F360
X6.030Y16.510 I-0.010
G01 Z-1.050 F30
G03 F360
X6.030Y16.510 I-0.010
G01 Z-1.200 F30
G03 F360
X6.030Y16.510 I-0.010
G01 Z-1.350 F30
G03 F360
X6.030Y16.510 I-0.010
G01 Z-1.500 F30
G03 F360
X6.030Y16.510 I-0.010
G01 Z-1.650 F30
G03 F360
X6.030Y16.510 I-0.010
G01 Z-1.750 F30
G03 F360
X6.030Y16.510 I-0.010
G00 Z5.000
G00 X6.030Y24.130
G01 Z-0.150 F30
G03 F360
X6.030Y24.130 I-0.010
G01 Z-0.300 F30
G03 F360
X6.030Y24.130 I-0.010
G01 Z-0.450 F30
G03 F360
X6.030Y24.130 I-0.010
G01 Z-0.600 F30
G03 F360
X6.030Y24.130 I-0.010
G01 Z-0.750 F30
G03 F360
X6.030Y24.130 I-0.010
G01 Z-0.900 F30
G03 F360
X6.030Y24.130 I-0.010
G01 Z-1.050 F30
G03 F360
X6.030Y24.130 I-0.010
G01 Z-1.200 F30
G03 F360
X6.030Y24.130 I-0.010
G01 Z-1.350 F30
G03 F360
X6.030Y24.130 I-0.010
G01 Z-1.500 F30
G03 F360
X6.030Y24.130 I-0.010
G01 Z-1.650 F30
G03 F360
X6.030Y24.130 I-0.010
G01 Z-1.750 F30
G03 F360
X6.030Y24.130 I-0.010
G00 Z5.000
G00 X8.570Y24.130
G01 Z-0.150 F30
G03 F360
X8.570Y24.130 I-0.010
G01 Z-0.300 F30
G03 F360
X8.570Y24.130 I-0.010
G01 Z-0.450 F30
G03 F360
X8.570Y24.130 I-0.010
G01 Z-0.600 F30
G03 F360
X8.570Y24.130 I-0.010
G01 Z-0.750 F30
G03 F360
X8.570Y24.130 I-0.010
G01 Z-0.900 F30
G03 F360
X8.570Y24.130 I-0.010
G01 Z-1.050 F30
G03 F360
X8.570Y24.130 I-0.010
G01 Z-1.200 F30
G03 F360
X8.570Y24.130 I-0.010
G01 Z-1.350 F30
G03 F360
X8.570Y24.130 I-0.010
G01 Z-1.500 F30
G03 F360
X8.570Y24.130 I-0.010
G01 Z-1.650 F30
G03 F360
X8.570Y24.130 I-0.010
G01 Z-1.750 F30
G03 F360
X8.570Y24.130 I-0.010
G00 Z5.000
G00 X11.110Y24.130
G01 Z-0.150 F30
G03 F360
X11.110Y24.130 I-0.010
G01 Z-0.300 F30
G03 F360
X11.110Y24.130 I-0.010
G01 Z-0.450 F30
G03 F360
X11.110Y24.130 I-0.010
G01 Z-0.600 F30
G03 F360
X11.110Y24.130 I-0.010
G01 Z-0.750 F30
G03 F360
X11.110Y24.130 I-0.010
G01 Z-0.900 F30
G03 F360
X11.110Y24.130 I-0.010
G01 Z-1.050 F30
G03 F360
X11.110Y24.130 I-0.010
G01 Z-1.200 F30
G03 F360
X11.110Y24.130 I-0.010
G01 Z-1.350 F30
G03 F360
X11.110Y24.130 I-0.010
G01 Z-1.500 F30
G03 F360
X11.110Y24.130 I-0.010
G01 Z-1.650 F30
G03 F360
X11.110Y24.130 I-0.010
G01 Z-1.750 F30
G03 F360
X11.110Y24.130 I-0.010
G00 Z5.000
G00 X13.650Y24.130
G01 Z-0.150 F30
G03 F360
X13.650Y24.130 I-0.010
G01 Z-0.300 F30
G03 F360
X13.650Y24.130 I-0.010
G01 Z-0.450 F30
G03 F360
X13.650Y24.130 I-0.010
G01 Z-0.600 F30
G03 F360
X13.650Y24.130 I-0.010
G01 Z-0.750 F30
G03 F360
X13.650Y24.130 I-0.010
G01 Z-0.900 F30
G03 F360
X13.650Y24.130 I-0.010
G01 Z-1.050 F30
G03 F360
X13.650Y24.130 I-0.010
G01 Z-1.200 F30
G03 F360
X13.650Y24.130 I-0.010
G01 Z-1.350 F30
G03 F360
X13.650Y24.130 I-0.010
G01 Z-1.500 F30
G03 F360
X13.650Y24.130 I-0.010
G01 Z-1.650 F30
G03 F360
X13.650Y24.130 I-0.010
G01 Z-1.750 F30
G03 F360
X13.650Y24.130 I-0.010
G00 Z5.000
G00 X64.233Y11.290
G01 Z-0.150 F30
G03 F360
X64.233Y11.290 I-0.103
G01 Z-0.300 F30
G03 F360
X64.233Y11.290 I-0.103
G01 Z-0.450 F30
G03 F360
X64.233Y11.290 I-0.103
G01 Z-0.600 F30
G03 F360
X64.233Y11.290 I-0.103
G01 Z-0.750 F30
G03 F360
X64.233Y11.290 I-0.103
G01 Z-0.900 F30
G03 F360
X64.233Y11.290 I-0.103
G01 Z-1.050 F30
G03 F360
X64.233Y11.290 I-0.103
G01 Z-1.200 F30
G03 F360
X64.233Y11.290 I-0.103
G01 Z-1.350 F30
G03 F360
X64.233Y11.290 I-0.103
G01 Z-1.500 F30
G03 F360
X64.233Y11.290 I-0.103
G01 Z-1.650 F30
G03 F360
X64.233Y11.290 I-0.103
G01 Z-1.750 F30
G03 F360
X64.233Y11.290 I-0.103
G00 Z5.000
G00 X66.533Y13.390
G01 Z-0.150 F30
G03 F360
X66.533Y13.390 I-0.103
G01 Z-0.300 F30
G03 F360
X66.533Y13.390 I-0.103
G01 Z-0.450 F30
G03 F360
X66.533Y13.390 I-0.103
G01 Z-0.600 F30
G03 F360
X66.533Y13.390 I-0.103
G01 Z-0.750 F30
G03 F360
X66.533Y13.390 I-0.103
G01 Z-0.900 F30
G03 F360
X66.533Y13.390 I-0.103
G01 Z-1.050 F30
G03 F360
X66.533Y13.390 I-0.103
G01 Z-1.200 F30
G03 F360
X66.533Y13.390 I-0.103
G01 Z-1.350 F30
G03 F360
X66.533Y13.390 I-0.103
G01 Z-1.500 F30
G03 F360
X66.533Y13.390 I-0.103
G01 Z-1.650 F30
G03 F360
X66.533Y13.390 I-0.103
G01 Z-1.750 F30
G03 F360
X66.533Y13.390 I-0.103
G00 Z5.000
G00 X57.233Y11.090
G01 Z-0.150 F30
G03 F360
X57.233Y11.090 I-0.103
G01 Z-0.300 F30
G03 F360
X57.233Y11.090 I-0.103
G01 Z-0.450 F30
G03 F360
X57.233Y11.090 I-0.103
G01 Z-0.600 F30
G03 F360
X57.233Y11.090 I-0.103
G01 Z-0.750 F30
G03 F360
X57.233Y11.090 I-0.103
G01 Z-0.900 F30
G03 F360
X57.233Y11.090 I-0.103
G01 Z-1.050 F30
G03 F360
X57.233Y11.090 I-0.103
G01 Z-1.200 F30
G03 F360
X57.233Y11.090 I-0.103
G01 Z-1.350 F30
G03 F360
X57.233Y11.090 I-0.103
G01 Z-1.500 F30
G03 F360
X57.233Y11.090 I-0.103
G01 Z-1.650 F30
G03 F360
X57.233Y11.090 I-0.103
G01 Z-1.750 F30
G03 F360
X57.233Y11.090 I-0.103
G00 Z5.000
G00 X65.233Y4.390
G01 Z-0.150 F30
G03 F360
X65.233Y4.390 I-0.103
G01 Z-0.300 F30
G03 F360
X65.233Y4.390 I-0.103
G01 Z-0.450 F30
G03 F360
X65.233Y4.390 I-0.103
G01 Z-0.600 F30
G03 F360
X65.233Y4.390 I-0.103
G01 Z-0.750 F30
G03 F360
X65.233Y4.390 I-0.103
G01 Z-0.900 F30
G03 F360
X65.233Y4.390 I-0.103
G01 Z-1.050 F30
G03 F360
X65.233Y4.390 I-0.103
G01 Z-1.200 F30
G03 F360
X65.233Y4.390 I-0.103
G01 Z-1.350 F30
G03 F360
X65.233Y4.390 I-0.103
G01 Z-1.500 F30
G03 F360
X65.233Y4.390 I-0.103
G01 Z-1.650 F30
G03 F360
X65.233Y4.390 I-0.103
G01 Z-1.750 F30
G03 F360
X65.233Y4.390 I-0.103
G00 Z5.000
G00 X59.420Y44.450
G01 Z-0.150 F30
G03 F360
X59.420Y44.450 I-0.060
G01 Z-0.300 F30
G03 F360
X59.420Y44.450 I-0.060
G01 Z-0.450 F30
G03 F360
X59.420Y44.450 I-0.060
G01 Z-0.600 F30
G03 F360
X59.420Y44.450 I-0.060
G01 Z-0.750 F30
G03 F360
X59.420Y44.450 I-0.060
G01 Z-0.900 F30
G03 F360
X59.420Y44.450 I-0.060
G01 Z-1.050 F30
G03 F360
X59.420Y44.450 I-0.060
G01 Z-1.200 F30
G03 F360
X59.420Y44.450 I-0.060
G01 Z-1.350 F30
G03 F360
X59.420Y44.450 I-0.060
G01 Z-1.500 F30
G03 F360
X59.420Y44.450 I-0.060
G01 Z-1.650 F30
G03 F360
X59.420Y44.450 I-0.060
G01 Z-1.750 F30
G03 F360
X59.420Y44.450 I-0.060
G00 Z5.000
G00 X61.960Y29.210
G01 Z-0.150 F30
G03 F360
X61.960Y29.210 I-0.060
G01 Z-0.300 F30
G03 F360
X61.960Y29.210 I-0.060
G01 Z-0.450 F30
G03 F360
X61.960Y29.210 I-0.060
G01 Z-0.600 F30
G03 F360
X61.960Y29.210 I-0.060
G01 Z-0.750 F30
G03 F360
X61.960Y29.210 I-0.060
G01 Z-0.900 F30
G03 F360
X61.960Y29.210 I-0.060
G01 Z-1.050 F30
G03 F360
X61.960Y29.210 I-0.060
G01 Z-1.200 F30
G03 F360
X61.960Y29.210 I-0.060
G01 Z-1.350 F30
G03 F360
X61.960Y29.210 I-0.060
G01 Z-1.500 F30
G03 F360
X61.960Y29.210 I-0.060
G01 Z-1.650 F30
G03 F360
X61.960Y29.210 I-0.060
G01 Z-1.750 F30
G03 F360
X61.960Y29.210 I-0.060
G00 Z5.000
G00 X46.720Y44.450
G01 Z-0.150 F30
G03 F360
X46.720Y44.450 I-0.060
G01 Z-0.300 F30
G03 F360
X46.720Y44.450 I-0.060
G01 Z-0.450 F30
G03 F360
X46.720Y44.450 I-0.060
G01 Z-0.600 F30
G03 F360
X46.720Y44.450 I-0.060
G01 Z-0.750 F30
G03 F360
X46.720Y44.450 I-0.060
G01 Z-0.900 F30
G03 F360
X46.720Y44.450 I-0.060
G01 Z-1.050 F30
G03 F360
X46.720Y44.450 I-0.060
G01 Z-1.200 F30
G03 F360
X46.720Y44.450 I-0.060
G01 Z-1.350 F30
G03 F360
X46.720Y44.450 I-0.060
G01 Z-1.500 F30
G03 F360
X46.720Y44.450 I-0.060
G01 Z-1.650 F30
G03 F360
X46.720Y44.450 I-0.060
G01 Z-1.750 F30
G03 F360
X46.720Y44.450 I-0.060
G00 Z5.000
G00 X44.180Y44.450
G01 Z-0.150 F30
G03 F360
X44.180Y44.450 I-0.060
G01 Z-0.300 F30
G03 F360
X44.180Y44.450 I-0.060
G01 Z-0.450 F30
G03 F360
X44.180Y44.450 I-0.060
G01 Z-0.600 F30
G03 F360
X44.180Y44.450 I-0.060
G01 Z-0.750 F30
G03 F360
X44.180Y44.450 I-0.060
G01 Z-0.900 F30
G03 F360
X44.180Y44.450 I-0.060
G01 Z-1.050 F30
G03 F360
X44.180Y44.450 I-0.060
G01 Z-1.200 F30
G03 F360
X44.180Y44.450 I-0.060
G01 Z-1.350 F30
G03 F360
X44.180Y44.450 I-0.060
G01 Z-1.500 F30
G03 F360
X44.180Y44.450 I-0.060
G01 Z-1.650 F30
G03 F360
X44.180Y44.450 I-0.060
G01 Z-1.750 F30
G03 F360
X44.180Y44.450 I-0.060
G00 Z5.000
G00 X54.340Y24.130
G01 Z-0.150 F30
G03 F360
X54.340Y24.130 I-0.060
G01 Z-0.300 F30
G03 F360
X54.340Y24.130 I-0.060
G01 Z-0.450 F30
G03 F360
X54.340Y24.130 I-0.060
G01 Z-0.600 F30
G03 F360
X54.340Y24.130 I-0.060
G01 Z-0.750 F30
G03 F360
X54.340Y24.130 I-0.060
G01 Z-0.900 F30
G03 F360
X54.340Y24.130 I-0.060
G01 Z-1.050 F30
G03 F360
X54.340Y24.130 I-0.060
G01 Z-1.200 F30
G03 F360
X54.340Y24.130 I-0.060
G01 Z-1.350 F30
G03 F360
X54.340Y24.130 I-0.060
G01 Z-1.500 F30
G03 F360
X54.340Y24.130 I-0.060
G01 Z-1.650 F30
G03 F360
X54.340Y24.130 I-0.060
G01 Z-1.750 F30
G03 F360
X54.340Y24.130 I-0.060
G00 Z5.000
G00 X26.400Y44.450
G01 Z-0.150 F30
G03 F360
X26.400Y44.450 I-0.060
G01 Z-0.300 F30
G03 F360
X26.400Y44.450 I-0.060
G01 Z-0.450 F30
G03 F360
X26.400Y44.450 I-0.060
G01 Z-0.600 F30
G03 F360
X26.400Y44.450 I-0.060
G01 Z-0.750 F30
G03 F360
X26.400Y44.450 I-0.060
G01 Z-0.900 F30
G03 F360
X26.400Y44.450 I-0.060
G01 Z-1.050 F30
G03 F360
X26.400Y44.450 I-0.060
G01 Z-1.200 F30
G03 F360
X26.400Y44.450 I-0.060
G01 Z-1.350 F30
G03 F360
X26.400Y44.450 I-0.060
G01 Z-1.500 F30
G03 F360
X26.400Y44.450 I-0.060
G01 Z-1.650 F30
G03 F360
X26.400Y44.450 I-0.060
G01 Z-1.750 F30
G03 F360
X26.400Y44.450 I-0.060
G00 Z5.000
G00 X51.800Y24.130
G01 Z-0.150 F30
G03 F360
X51.800Y24.130 I-0.060
G01 Z-0.300 F30
G03 F360
X51.800Y24.130 I-0.060
G01 Z-0.450 F30
G03 F360
X51.800Y24.130 I-0.060
G01 Z-0.600 F30
G03 F360
X51.800Y24.130 I-0.060
G01 Z-0.750 F30
G03 F360
X51.800Y24.130 I-0.060
G01 Z-0.900 F30
G03 F360
X51.800Y24.130 I-0.060
G01 Z-1.050 F30
G03 F360
X51.800Y24.130 I-0.060
G01 Z-1.200 F30
G03 F360
X51.800Y24.130 I-0.060
G01 Z-1.350 F30
G03 F360
X51.800Y24.130 I-0.060
G01 Z-1.500 F30
G03 F360
X51.800Y24.130 I-0.060
G01 Z-1.650 F30
G03 F360
X51.800Y24.130 I-0.060
G01 Z-1.750 F30
G03 F360
X51.800Y24.130 I-0.060
G00 Z5.000
G00 X51.800Y29.210
G01 Z-0.150 F30
G03 F360
X51.800Y29.210 I-0.060
G01 Z-0.300 F30
G03 F360
X51.800Y29.210 I-0.060
G01 Z-0.450 F30
G03 F360
X51.800Y29.210 I-0.060
G01 Z-0.600 F30
G03 F360
X51.800Y29.210 I-0.060
G01 Z-0.750 F30
G03 F360
X51.800Y29.210 I-0.060
G01 Z-0.900 F30
G03 F360
X51.800Y29.210 I-0.060
G01 Z-1.050 F30
G03 F360
X51.800Y29.210 I-0.060
G01 Z-1.200 F30
G03 F360
X51.800Y29.210 I-0.060
G01 Z-1.350 F30
G03 F360
X51.800Y29.210 I-0.060
G01 Z-1.500 F30
G03 F360
X51.800Y29.210 I-0.060
G01 Z-1.650 F30
G03 F360
X51.800Y29.210 I-0.060
G01 Z-1.750 F30
G03 F360
X51.800Y29.210 I-0.060
G00 Z5.000
G00 X51.800Y44.450
G01 Z-0.150 F30
G03 F360
X51.800Y44.450 I-0.060
G01 Z-0.300 F30
G03 F360
X51.800Y44.450 I-0.060
G01 Z-0.450 F30
G03 F360
X51.800Y44.450 I-0.060
G01 Z-0.600 F30
G03 F360
X51.800Y44.450 I-0.060
G01 Z-0.750 F30
G03 F360
X51.800Y44.450 I-0.060
G01 Z-0.900 F30
G03 F360
X51.800Y44.450 I-0.060
G01 Z-1.050 F30
G03 F360
X51.800Y44.450 I-0.060
G01 Z-1.200 F30
G03 F360
X51.800Y44.450 I-0.060
G01 Z-1.350 F30
G03 F360
X51.800Y44.450 I-0.060
G01 Z-1.500 F30
G03 F360
X51.800Y44.450 I-0.060
G01 Z-1.650 F30
G03 F360
X51.800Y44.450 I-0.060
G01 Z-1.750 F30
G03 F360
X51.800Y44.450 I-0.060
G00 Z5.000
G00 X54.340Y29.210
G01 Z-0.150 F30
G03 F360
X54.340Y29.210 I-0.060
G01 Z-0.300 F30
G03 F360
X54.340Y29.210 I-0.060
G01 Z-0.450 F30
G03 F360
X54.340Y29.210 I-0.060
G01 Z-0.600 F30
G03 F360
X54.340Y29.210 I-0.060
G01 Z-0.750 F30
G03 F360
X54.340Y29.210 I-0.060
G01 Z-0.900 F30
G03 F360
X54.340Y29.210 I-0.060
G01 Z-1.050 F30
G03 F360
X54.340Y29.210 I-0.060
G01 Z-1.200 F30
G03 F360
X54.340Y29.210 I-0.060
G01 Z-1.350 F30
G03 F360
X54.340Y29.210 I-0.060
G01 Z-1.500 F30
G03 F360
X54.340Y29.210 I-0.060
G01 Z-1.650 F30
G03 F360
X54.340Y29.210 I-0.060
G01 Z-1.750 F30
G03 F360
X54.340Y29.210 I-0.060
G00 Z5.000
G00 X61.960Y44.450
G01 Z-0.150 F30
G03 F360
X61.960Y44.450 I-0.060
G01 Z-0.300 F30
G03 F360
X61.960Y44.450 I-0.060
G01 Z-0.450 F30
G03 F360
X61.960Y44.450 I-0.060
G01 Z-0.600 F30
G03 F360
X61.960Y44.450 I-0.060
G01 Z-0.750 F30
G03 F360
X61.960Y44.450 I-0.060
G01 Z-0.900 F30
G03 F360
X61.960Y44.450 I-0.060
G01 Z-1.050 F30
G03 F360
X61.960Y44.450 I-0.060
G01 Z-1.200 F30
G03 F360
X61.960Y44.450 I-0.060
G01 Z-1.350 F30
G03 F360
X61.960Y44.450 I-0.060
G01 Z-1.500 F30
G03 F360
X61.960Y44.450 I-0.060
G01 Z-1.650 F30
G03 F360
X61.960Y44.450 I-0.060
G01 Z-1.750 F30
G03 F360
X61.960Y44.450 I-0.060
G00 Z5.000
G00 X59.420Y29.210
G01 Z-0.150 F30
G03 F360
X59.420Y29.210 I-0.060
G01 Z-0.300 F30
G03 F360
X59.420Y29.210 I-0.060
G01 Z-0.450 F30
G03 F360
X59.420Y29.210 I-0.060
G01 Z-0.600 F30
G03 F360
X59.420Y29.210 I-0.060
G01 Z-0.750 F30
G03 F360
X59.420Y29.210 I-0.060
G01 Z-0.900 F30
G03 F360
X59.420Y29.210 I-0.060
G01 Z-1.050 F30
G03 F360
X59.420Y29.210 I-0.060
G01 Z-1.200 F30
G03 F360
X59.420Y29.210 I-0.060
G01 Z-1.350 F30
G03 F360
X59.420Y29.210 I-0.060
G01 Z-1.500 F30
G03 F360
X59.420Y29.210 I-0.060
G01 Z-1.650 F30
G03 F360
X59.420Y29.210 I-0.060
G01 Z-1.750 F30
G03 F360
X59.420Y29.210 I-0.060
G00 Z5.000
G00 X56.880Y29.210
G01 Z-0.150 F30
G03 F360
X56.880Y29.210 I-0.060
G01 Z-0.300 F30
G03 F360
X56.880Y29.210 I-0.060
G01 Z-0.450 F30
G03 F360
X56.880Y29.210 I-0.060
G01 Z-0.600 F30
G03 F360
X56.880Y29.210 I-0.060
G01 Z-0.750 F30
G03 F360
X56.880Y29.210 I-0.060
G01 Z-0.900 F30
G03 F360
X56.880Y29.210 I-0.060
G01 Z-1.050 F30
G03 F360
X56.880Y29.210 I-0.060
G01 Z-1.200 F30
G03 F360
X56.880Y29.210 I-0.060
G01 Z-1.350 F30
G03 F360
X56.880Y29.210 I-0.060
G01 Z-1.500 F30
G03 F360
X56.880Y29.210 I-0.060
G01 Z-1.650 F30
G03 F360
X56.880Y29.210 I-0.060
G01 Z-1.750 F30
G03 F360
X56.880Y29.210 I-0.060
G00 Z5.000
G00 X56.880Y44.450
G01 Z-0.150 F30
G03 F360
X56.880Y44.450 I-0.060
G01 Z-0.300 F30
G03 F360
X56.880Y44.450 I-0.060
G01 Z-0.450 F30
G03 F360
X56.880Y44.450 I-0.060
G01 Z-0.600 F30
G03 F360
X56.880Y44.450 I-0.060
G01 Z-0.750 F30
G03 F360
X56.880Y44.450 I-0.060
G01 Z-0.900 F30
G03 F360
X56.880Y44.450 I-0.060
G01 Z-1.050 F30
G03 F360
X56.880Y44.450 I-0.060
G01 Z-1.200 F30
G03 F360
X56.880Y44.450 I-0.060
G01 Z-1.350 F30
G03 F360
X56.880Y44.450 I-0.060
G01 Z-1.500 F30
G03 F360
X56.880Y44.450 I-0.060
G01 Z-1.650 F30
G03 F360
X56.880Y44.450 I-0.060
G01 Z-1.750 F30
G03 F360
X56.880Y44.450 I-0.060
G00 Z5.000
M05
G04 P4000
G00 X0Y0
