(RS-274 Compatible G-code generated for UCCNC controller and Stepcraft 2 Mill)
(Created by in EagleCAD with the stepcraft.ulp 0.1.)
(File: "Proto.brd" created on: 03/04/2019 8:03)
(Use a 1/32inch Bit)

G90 G94 G49
G21
G00 Z5
G00 X0Y0
S12000 M03
G04 P4000
G00 Z5.000
G00 X69.520Y46.980
G01 Z-0.150 F30
G01 X69.520Y2.540 F360
G02
X66.980Y0.000 R2.540
G01 X2.540Y0.000 F360
G02
X0.000Y2.540 R2.540
G01 X0.000Y46.980 F360
G02
X2.540Y49.520 R2.540
G01 X66.980Y49.520 F360
G02
X69.520Y46.980 R2.540
G01 Z-0.300 F30
G01 X69.520Y2.540 F360
G02
X66.980Y0.000 R2.540
G01 X2.540Y0.000 F360
G02
X0.000Y2.540 R2.540
G01 X0.000Y46.980 F360
G02
X2.540Y49.520 R2.540
G01 X66.980Y49.520 F360
G02
X69.520Y46.980 R2.540
G01 Z-0.450 F30
G01 X69.520Y2.540 F360
G02
X66.980Y0.000 R2.540
G01 X2.540Y0.000 F360
G02
X0.000Y2.540 R2.540
G01 X0.000Y46.980 F360
G02
X2.540Y49.520 R2.540
G01 X66.980Y49.520 F360
G02
X69.520Y46.980 R2.540
G01 Z-0.600 F30
G01 X69.520Y2.540 F360
G02
X66.980Y0.000 R2.540
G01 X2.540Y0.000 F360
G02
X0.000Y2.540 R2.540
G01 X0.000Y46.980 F360
G02
X2.540Y49.520 R2.540
G01 X66.980Y49.520 F360
G02
X69.520Y46.980 R2.540
G01 Z-0.750 F30
G01 X69.520Y2.540 F360
G02
X66.980Y0.000 R2.540
G01 X2.540Y0.000 F360
G02
X0.000Y2.540 R2.540
G01 X0.000Y46.980 F360
G02
X2.540Y49.520 R2.540
G01 X66.980Y49.520 F360
G02
X69.520Y46.980 R2.540
G01 Z-0.900 F30
G01 X69.520Y2.540 F360
G02
X66.980Y0.000 R2.540
G01 X2.540Y0.000 F360
G02
X0.000Y2.540 R2.540
G01 X0.000Y46.980 F360
G02
X2.540Y49.520 R2.540
G01 X66.980Y49.520 F360
G02
X69.520Y46.980 R2.540
G01 Z-1.050 F30
G01 X69.520Y2.540 F360
G02
X66.980Y0.000 R2.540
G01 X2.540Y0.000 F360
G02
X0.000Y2.540 R2.540
G01 X0.000Y46.980 F360
G02
X2.540Y49.520 R2.540
G01 X66.980Y49.520 F360
G02
X69.520Y46.980 R2.540
G01 Z-1.200 F30
G01 X69.520Y2.540 F360
G02
X66.980Y0.000 R2.540
G01 X2.540Y0.000 F360
G02
X0.000Y2.540 R2.540
G01 X0.000Y46.980 F360
G02
X2.540Y49.520 R2.540
G01 X66.980Y49.520 F360
G02
X69.520Y46.980 R2.540
G01 Z-1.350 F30
G01 X69.520Y2.540 F360
G02
X66.980Y0.000 R2.540
G01 X2.540Y0.000 F360
G02
X0.000Y2.540 R2.540
G01 X0.000Y46.980 F360
G02
X2.540Y49.520 R2.540
G01 X66.980Y49.520 F360
G02
X69.520Y46.980 R2.540
G01 Z-1.500 F30
G01 X69.520Y2.540 F360
G02
X66.980Y0.000 R2.540
G01 X2.540Y0.000 F360
G02
X0.000Y2.540 R2.540
G01 X0.000Y46.980 F360
G02
X2.540Y49.520 R2.540
G01 X66.980Y49.520 F360
G02
X69.520Y46.980 R2.540
G01 Z-1.650 F30
G01 X69.520Y2.540 F360
G02
X66.980Y0.000 R2.540
G01 X2.540Y0.000 F360
G02
X0.000Y2.540 R2.540
G01 X0.000Y46.980 F360
G02
X2.540Y49.520 R2.540
G01 X66.980Y49.520 F360
G02
X69.520Y46.980 R2.540
G01 Z-1.750 F30
G01 X69.520Y2.540 F360
G02
X66.980Y0.000 R2.540
G01 X2.540Y0.000 F360
G02
X0.000Y2.540 R2.540
G01 X0.000Y46.980 F360
G02
X2.540Y49.520 R2.540
G01 X66.980Y49.520 F360
G02
X69.520Y46.980 R2.540
G00 Z5.000
M05
G04 P4000
G00 X0Y0
