(RS-274 Compatible G-code generated for UCCNC controller and Stepcraft 2 Mill)
(Created by in EagleCAD with the stepcraft.ulp 0.1.)
(File: "ali.brd" created on: 01/04/2019 11:19)
(Use a 1/32inch Bit)

G90 G94 G49
G21
G00 Z5
G00 X0Y0
S12000 M03
G04 P4000
G00 Z5.000
G00 X54.280Y1.270
G01 Z-0.150 F30
G01 X0.000Y1.270 F360
G01 X0.000Y24.120 F360
G01 X54.280Y24.120 F360
G01 X54.280Y1.270 F360
G01 Z-0.300 F30
G01 X0.000Y1.270 F360
G01 X0.000Y24.120 F360
G01 X54.280Y24.120 F360
G01 X54.280Y1.270 F360
G01 Z-0.450 F30
G01 X0.000Y1.270 F360
G01 X0.000Y24.120 F360
G01 X54.280Y24.120 F360
G01 X54.280Y1.270 F360
G01 Z-0.600 F30
G01 X0.000Y1.270 F360
G01 X0.000Y24.120 F360
G01 X54.280Y24.120 F360
G01 X54.280Y1.270 F360
G01 Z-0.750 F30
G01 X0.000Y1.270 F360
G01 X0.000Y24.120 F360
G01 X54.280Y24.120 F360
G01 X54.280Y1.270 F360
G01 Z-0.900 F30
G01 X0.000Y1.270 F360
G01 X0.000Y24.120 F360
G01 X54.280Y24.120 F360
G01 X54.280Y1.270 F360
G01 Z-1.050 F30
G01 X0.000Y1.270 F360
G01 X0.000Y24.120 F360
G01 X54.280Y24.120 F360
G01 X54.280Y1.270 F360
G01 Z-1.200 F30
G01 X0.000Y1.270 F360
G01 X0.000Y24.120 F360
G01 X54.280Y24.120 F360
G01 X54.280Y1.270 F360
G01 Z-1.350 F30
G01 X0.000Y1.270 F360
G01 X0.000Y24.120 F360
G01 X54.280Y24.120 F360
G01 X54.280Y1.270 F360
G01 Z-1.500 F30
G01 X0.000Y1.270 F360
G01 X0.000Y24.120 F360
G01 X54.280Y24.120 F360
G01 X54.280Y1.270 F360
G01 Z-1.650 F30
G01 X0.000Y1.270 F360
G01 X0.000Y24.120 F360
G01 X54.280Y24.120 F360
G01 X54.280Y1.270 F360
G01 Z-1.650 F30
G01 X0.000Y1.270 F360
G01 X0.000Y24.120 F360
G01 X54.280Y24.120 F360
G01 X54.280Y1.270 F360
G00 Z5.000
M05
G04 P4000
G00 X0Y0
