(RS-274 Compatible G-code generated for UCCNC controller and Stepcraft 2 Mill)
(Created by in EagleCAD with the stepcraft.ulp 0.1.)
(File: "ali.brd" created on: 01/04/2019 11:19)
(Use a 1/32inch Bit)

G90 G94 G49
G21
G00 Z5
G00 X0Y0
S12000 M03
G04 P4000
G00 X12.532Y10.160
G01 Z-0.150 F30
G03 F360
X12.532Y10.160 I-0.162
G01 Z-0.300 F30
G03 F360
X12.532Y10.160 I-0.162
G01 Z-0.450 F30
G03 F360
X12.532Y10.160 I-0.162
G01 Z-0.600 F30
G03 F360
X12.532Y10.160 I-0.162
G01 Z-0.750 F30
G03 F360
X12.532Y10.160 I-0.162
G01 Z-0.900 F30
G03 F360
X12.532Y10.160 I-0.162
G01 Z-1.050 F30
G03 F360
X12.532Y10.160 I-0.162
G01 Z-1.200 F30
G03 F360
X12.532Y10.160 I-0.162
G01 Z-1.350 F30
G03 F360
X12.532Y10.160 I-0.162
G01 Z-1.500 F30
G03 F360
X12.532Y10.160 I-0.162
G01 Z-1.650 F30
G03 F360
X12.532Y10.160 I-0.162
G01 Z-1.650 F30
G03 F360
X12.532Y10.160 I-0.162
G00 Z5.000
G00 X49.260Y11.430
G01 Z-0.150 F30
G03 F360
X49.260Y11.430 I-0.060
G01 Z-0.300 F30
G03 F360
X49.260Y11.430 I-0.060
G01 Z-0.450 F30
G03 F360
X49.260Y11.430 I-0.060
G01 Z-0.600 F30
G03 F360
X49.260Y11.430 I-0.060
G01 Z-0.750 F30
G03 F360
X49.260Y11.430 I-0.060
G01 Z-0.900 F30
G03 F360
X49.260Y11.430 I-0.060
G01 Z-1.050 F30
G03 F360
X49.260Y11.430 I-0.060
G01 Z-1.200 F30
G03 F360
X49.260Y11.430 I-0.060
G01 Z-1.350 F30
G03 F360
X49.260Y11.430 I-0.060
G01 Z-1.500 F30
G03 F360
X49.260Y11.430 I-0.060
G01 Z-1.650 F30
G03 F360
X49.260Y11.430 I-0.060
G01 Z-1.650 F30
G03 F360
X49.260Y11.430 I-0.060
G00 Z5.000
G00 X49.260Y16.510
G01 Z-0.150 F30
G03 F360
X49.260Y16.510 I-0.060
G01 Z-0.300 F30
G03 F360
X49.260Y16.510 I-0.060
G01 Z-0.450 F30
G03 F360
X49.260Y16.510 I-0.060
G01 Z-0.600 F30
G03 F360
X49.260Y16.510 I-0.060
G01 Z-0.750 F30
G03 F360
X49.260Y16.510 I-0.060
G01 Z-0.900 F30
G03 F360
X49.260Y16.510 I-0.060
G01 Z-1.050 F30
G03 F360
X49.260Y16.510 I-0.060
G01 Z-1.200 F30
G03 F360
X49.260Y16.510 I-0.060
G01 Z-1.350 F30
G03 F360
X49.260Y16.510 I-0.060
G01 Z-1.500 F30
G03 F360
X49.260Y16.510 I-0.060
G01 Z-1.650 F30
G03 F360
X49.260Y16.510 I-0.060
G01 Z-1.650 F30
G03 F360
X49.260Y16.510 I-0.060
G00 Z5.000
G00 X6.182Y21.590
G01 Z-0.150 F30
G03 F360
X6.182Y21.590 I-0.162
G01 Z-0.300 F30
G03 F360
X6.182Y21.590 I-0.162
G01 Z-0.450 F30
G03 F360
X6.182Y21.590 I-0.162
G01 Z-0.600 F30
G03 F360
X6.182Y21.590 I-0.162
G01 Z-0.750 F30
G03 F360
X6.182Y21.590 I-0.162
G01 Z-0.900 F30
G03 F360
X6.182Y21.590 I-0.162
G01 Z-1.050 F30
G03 F360
X6.182Y21.590 I-0.162
G01 Z-1.200 F30
G03 F360
X6.182Y21.590 I-0.162
G01 Z-1.350 F30
G03 F360
X6.182Y21.590 I-0.162
G01 Z-1.500 F30
G03 F360
X6.182Y21.590 I-0.162
G01 Z-1.650 F30
G03 F360
X6.182Y21.590 I-0.162
G01 Z-1.650 F30
G03 F360
X6.182Y21.590 I-0.162
G00 Z5.000
G00 X6.182Y8.890
G01 Z-0.150 F30
G03 F360
X6.182Y8.890 I-0.162
G01 Z-0.300 F30
G03 F360
X6.182Y8.890 I-0.162
G01 Z-0.450 F30
G03 F360
X6.182Y8.890 I-0.162
G01 Z-0.600 F30
G03 F360
X6.182Y8.890 I-0.162
G01 Z-0.750 F30
G03 F360
X6.182Y8.890 I-0.162
G01 Z-0.900 F30
G03 F360
X6.182Y8.890 I-0.162
G01 Z-1.050 F30
G03 F360
X6.182Y8.890 I-0.162
G01 Z-1.200 F30
G03 F360
X6.182Y8.890 I-0.162
G01 Z-1.350 F30
G03 F360
X6.182Y8.890 I-0.162
G01 Z-1.500 F30
G03 F360
X6.182Y8.890 I-0.162
G01 Z-1.650 F30
G03 F360
X6.182Y8.890 I-0.162
G01 Z-1.650 F30
G03 F360
X6.182Y8.890 I-0.162
G00 Z5.000
G00 X49.260Y8.890
G01 Z-0.150 F30
G03 F360
X49.260Y8.890 I-0.060
G01 Z-0.300 F30
G03 F360
X49.260Y8.890 I-0.060
G01 Z-0.450 F30
G03 F360
X49.260Y8.890 I-0.060
G01 Z-0.600 F30
G03 F360
X49.260Y8.890 I-0.060
G01 Z-0.750 F30
G03 F360
X49.260Y8.890 I-0.060
G01 Z-0.900 F30
G03 F360
X49.260Y8.890 I-0.060
G01 Z-1.050 F30
G03 F360
X49.260Y8.890 I-0.060
G01 Z-1.200 F30
G03 F360
X49.260Y8.890 I-0.060
G01 Z-1.350 F30
G03 F360
X49.260Y8.890 I-0.060
G01 Z-1.500 F30
G03 F360
X49.260Y8.890 I-0.060
G01 Z-1.650 F30
G03 F360
X49.260Y8.890 I-0.060
G01 Z-1.650 F30
G03 F360
X49.260Y8.890 I-0.060
G00 Z5.000
G00 X49.260Y13.970
G01 Z-0.150 F30
G03 F360
X49.260Y13.970 I-0.060
G01 Z-0.300 F30
G03 F360
X49.260Y13.970 I-0.060
G01 Z-0.450 F30
G03 F360
X49.260Y13.970 I-0.060
G01 Z-0.600 F30
G03 F360
X49.260Y13.970 I-0.060
G01 Z-0.750 F30
G03 F360
X49.260Y13.970 I-0.060
G01 Z-0.900 F30
G03 F360
X49.260Y13.970 I-0.060
G01 Z-1.050 F30
G03 F360
X49.260Y13.970 I-0.060
G01 Z-1.200 F30
G03 F360
X49.260Y13.970 I-0.060
G01 Z-1.350 F30
G03 F360
X49.260Y13.970 I-0.060
G01 Z-1.500 F30
G03 F360
X49.260Y13.970 I-0.060
G01 Z-1.650 F30
G03 F360
X49.260Y13.970 I-0.060
G01 Z-1.650 F30
G03 F360
X49.260Y13.970 I-0.060
G00 Z5.000
G00 X6.182Y16.510
G01 Z-0.150 F30
G03 F360
X6.182Y16.510 I-0.162
G01 Z-0.300 F30
G03 F360
X6.182Y16.510 I-0.162
G01 Z-0.450 F30
G03 F360
X6.182Y16.510 I-0.162
G01 Z-0.600 F30
G03 F360
X6.182Y16.510 I-0.162
G01 Z-0.750 F30
G03 F360
X6.182Y16.510 I-0.162
G01 Z-0.900 F30
G03 F360
X6.182Y16.510 I-0.162
G01 Z-1.050 F30
G03 F360
X6.182Y16.510 I-0.162
G01 Z-1.200 F30
G03 F360
X6.182Y16.510 I-0.162
G01 Z-1.350 F30
G03 F360
X6.182Y16.510 I-0.162
G01 Z-1.500 F30
G03 F360
X6.182Y16.510 I-0.162
G01 Z-1.650 F30
G03 F360
X6.182Y16.510 I-0.162
G01 Z-1.650 F30
G03 F360
X6.182Y16.510 I-0.162
G00 Z5.000
G00 X6.182Y3.810
G01 Z-0.150 F30
G03 F360
X6.182Y3.810 I-0.162
G01 Z-0.300 F30
G03 F360
X6.182Y3.810 I-0.162
G01 Z-0.450 F30
G03 F360
X6.182Y3.810 I-0.162
G01 Z-0.600 F30
G03 F360
X6.182Y3.810 I-0.162
G01 Z-0.750 F30
G03 F360
X6.182Y3.810 I-0.162
G01 Z-0.900 F30
G03 F360
X6.182Y3.810 I-0.162
G01 Z-1.050 F30
G03 F360
X6.182Y3.810 I-0.162
G01 Z-1.200 F30
G03 F360
X6.182Y3.810 I-0.162
G01 Z-1.350 F30
G03 F360
X6.182Y3.810 I-0.162
G01 Z-1.500 F30
G03 F360
X6.182Y3.810 I-0.162
G01 Z-1.650 F30
G03 F360
X6.182Y3.810 I-0.162
G01 Z-1.650 F30
G03 F360
X6.182Y3.810 I-0.162
G00 Z5.000
G00 X12.532Y15.240
G01 Z-0.150 F30
G03 F360
X12.532Y15.240 I-0.162
G01 Z-0.300 F30
G03 F360
X12.532Y15.240 I-0.162
G01 Z-0.450 F30
G03 F360
X12.532Y15.240 I-0.162
G01 Z-0.600 F30
G03 F360
X12.532Y15.240 I-0.162
G01 Z-0.750 F30
G03 F360
X12.532Y15.240 I-0.162
G01 Z-0.900 F30
G03 F360
X12.532Y15.240 I-0.162
G01 Z-1.050 F30
G03 F360
X12.532Y15.240 I-0.162
G01 Z-1.200 F30
G03 F360
X12.532Y15.240 I-0.162
G01 Z-1.350 F30
G03 F360
X12.532Y15.240 I-0.162
G01 Z-1.500 F30
G03 F360
X12.532Y15.240 I-0.162
G01 Z-1.650 F30
G03 F360
X12.532Y15.240 I-0.162
G01 Z-1.650 F30
G03 F360
X12.532Y15.240 I-0.162
G00 Z5.000
G00 X23.962Y12.700
G01 Z-0.150 F30
G03 F360
X23.962Y12.700 I-0.162
G01 Z-0.300 F30
G03 F360
X23.962Y12.700 I-0.162
G01 Z-0.450 F30
G03 F360
X23.962Y12.700 I-0.162
G01 Z-0.600 F30
G03 F360
X23.962Y12.700 I-0.162
G01 Z-0.750 F30
G03 F360
X23.962Y12.700 I-0.162
G01 Z-0.900 F30
G03 F360
X23.962Y12.700 I-0.162
G01 Z-1.050 F30
G03 F360
X23.962Y12.700 I-0.162
G01 Z-1.200 F30
G03 F360
X23.962Y12.700 I-0.162
G01 Z-1.350 F30
G03 F360
X23.962Y12.700 I-0.162
G01 Z-1.500 F30
G03 F360
X23.962Y12.700 I-0.162
G01 Z-1.650 F30
G03 F360
X23.962Y12.700 I-0.162
G01 Z-1.650 F30
G03 F360
X23.962Y12.700 I-0.162
G00 Z5.000
G00 X29.042Y12.700
G01 Z-0.150 F30
G03 F360
X29.042Y12.700 I-0.162
G01 Z-0.300 F30
G03 F360
X29.042Y12.700 I-0.162
G01 Z-0.450 F30
G03 F360
X29.042Y12.700 I-0.162
G01 Z-0.600 F30
G03 F360
X29.042Y12.700 I-0.162
G01 Z-0.750 F30
G03 F360
X29.042Y12.700 I-0.162
G01 Z-0.900 F30
G03 F360
X29.042Y12.700 I-0.162
G01 Z-1.050 F30
G03 F360
X29.042Y12.700 I-0.162
G01 Z-1.200 F30
G03 F360
X29.042Y12.700 I-0.162
G01 Z-1.350 F30
G03 F360
X29.042Y12.700 I-0.162
G01 Z-1.500 F30
G03 F360
X29.042Y12.700 I-0.162
G01 Z-1.650 F30
G03 F360
X29.042Y12.700 I-0.162
G01 Z-1.650 F30
G03 F360
X29.042Y12.700 I-0.162
G00 Z5.000
G00 X34.122Y12.700
G01 Z-0.150 F30
G03 F360
X34.122Y12.700 I-0.162
G01 Z-0.300 F30
G03 F360
X34.122Y12.700 I-0.162
G01 Z-0.450 F30
G03 F360
X34.122Y12.700 I-0.162
G01 Z-0.600 F30
G03 F360
X34.122Y12.700 I-0.162
G01 Z-0.750 F30
G03 F360
X34.122Y12.700 I-0.162
G01 Z-0.900 F30
G03 F360
X34.122Y12.700 I-0.162
G01 Z-1.050 F30
G03 F360
X34.122Y12.700 I-0.162
G01 Z-1.200 F30
G03 F360
X34.122Y12.700 I-0.162
G01 Z-1.350 F30
G03 F360
X34.122Y12.700 I-0.162
G01 Z-1.500 F30
G03 F360
X34.122Y12.700 I-0.162
G01 Z-1.650 F30
G03 F360
X34.122Y12.700 I-0.162
G01 Z-1.650 F30
G03 F360
X34.122Y12.700 I-0.162
G00 Z5.000
M05
G04 P4000
G00 X0Y0
